%
(Header)
(Generated by gcodetools from Inkscape.)
(Using default header. To add your own header create file "header" in the output dir.)
M3
(Header end.)
G21 (All units in mm)

(Start cutting path id: path14427)
(Change tool to Graffiti)
(Add G00 here to change sprayer if needed)
G00 Z5.000000
G00 X14.786694 Y55.806832
M03 S1(Turn spray on)
 
G01 Z-1.000000 F1.0(Penetrate)
G01 X14.786694 Y55.806832 Z-1.000000 F0.500000
G00 Z5.000000
M05 (Turn spray off)
 
(Change tool to Graffiti)
(Add G00 here to change sprayer if needed)
G00 Z5.000000
G00 X14.786694 Y55.806832
M03 S1(Turn spray on)
 
G01 Z-1.000000 F1.0(Penetrate)
G01 X14.786694 Y55.806832 Z-1.000000 F0.500000
G00 Z5.000000
M05 (Turn spray off)
 
(Change tool to Graffiti)
(Add G00 here to change sprayer if needed)
G00 Z5.000000
G00 X14.786694 Y55.806832
M03 S1(Turn spray on)
 
G01 Z-1.000000 F1.0(Penetrate)
G01 X14.786694 Y55.806832 Z-1.000000 F0.500000
G00 Z5.000000
M05 (Turn spray off)
 
(Change tool to Graffiti)
(Add G00 here to change sprayer if needed)
G00 Z5.000000
G00 X15.286694 Y55.729897
M03 S1(Turn spray on)
 
G01 Z-1.000000 F1.0(Penetrate)
G01 X15.286694 Y56.061703 Z-1.000000 F0.500000
G00 Z5.000000
M05 (Turn spray off)
 
(Change tool to Graffiti)
(Add G00 here to change sprayer if needed)
G00 Z5.000000
G00 X15.786694 Y56.316574
M03 S1(Turn spray on)
 
G01 Z-1.000000 F1.0(Penetrate)
G01 X15.786694 Y55.652963 Z-1.000000 F0.500000
G00 Z5.000000
M05 (Turn spray off)
 
(Change tool to Graffiti)
(Add G00 here to change sprayer if needed)
G00 Z5.000000
G00 X16.286694 Y55.576028
M03 S1(Turn spray on)
 
G01 Z-1.000000 F1.0(Penetrate)
G01 X16.286694 Y56.571446 Z-1.000000 F0.500000
G00 Z5.000000
M05 (Turn spray off)
 
(Change tool to Graffiti)
(Add G00 here to change sprayer if needed)
G00 Z5.000000
G00 X16.786694 Y56.826317
M03 S1(Turn spray on)
 
G01 Z-1.000000 F1.0(Penetrate)
G01 X16.786694 Y55.499094 Z-1.000000 F0.500000
G00 Z5.000000
M05 (Turn spray off)
 
(Change tool to Graffiti)
(Add G00 here to change sprayer if needed)
G00 Z5.000000
G00 X17.286694 Y55.422160
M03 S1(Turn spray on)
 
G01 Z-1.000000 F1.0(Penetrate)
G01 X17.286694 Y57.081189 Z-1.000000 F0.500000
G00 Z5.000000
M05 (Turn spray off)
 
(Change tool to Graffiti)
(Add G00 here to change sprayer if needed)
G00 Z5.000000
G00 X17.786694 Y57.336060
M03 S1(Turn spray on)
 
G01 Z-1.000000 F1.0(Penetrate)
G01 X17.786694 Y55.345225 Z-1.000000 F0.500000
G00 Z5.000000
M05 (Turn spray off)
 
(Change tool to Graffiti)
(Add G00 here to change sprayer if needed)
G00 Z5.000000
G00 X18.286694 Y35.244131
M03 S1(Turn spray on)
 
G01 Z-1.000000 F1.0(Penetrate)
G01 X18.286694 Y39.590902 Z-1.000000 F0.500000
G00 Z5.000000
M05 (Turn spray off)
 
(Change tool to Graffiti)
(Add G00 here to change sprayer if needed)
G00 Z5.000000
G00 X18.286694 Y55.268291
M03 S1(Turn spray on)
 
G01 Z-1.000000 F1.0(Penetrate)
G01 X18.286694 Y57.590931 Z-1.000000 F0.500000
G00 Z5.000000
M05 (Turn spray off)
 
(Change tool to Graffiti)
(Add G00 here to change sprayer if needed)
G00 Z5.000000
G00 X18.786694 Y75.052048
M03 S1(Turn spray on)
 
G01 Z-1.000000 F1.0(Penetrate)
G01 X18.786694 Y74.786765 Z-1.000000 F0.500000
G00 Z5.000000
M05 (Turn spray off)
 
(Change tool to Graffiti)
(Add G00 here to change sprayer if needed)
G00 Z5.000000
G00 X18.786694 Y57.845803
M03 S1(Turn spray on)
 
G01 Z-1.000000 F1.0(Penetrate)
G01 X18.786694 Y55.191356 Z-1.000000 F0.500000
G00 Z5.000000
M05 (Turn spray off)
 
(Change tool to Graffiti)
(Add G00 here to change sprayer if needed)
G00 Z5.000000
G00 X18.786694 Y40.652028
M03 S1(Turn spray on)
 
G01 Z-1.000000 F1.0(Penetrate)
G01 X18.786694 Y34.183004 Z-1.000000 F0.500000
G00 Z5.000000
M05 (Turn spray off)
 
(Change tool to Graffiti)
(Add G00 here to change sprayer if needed)
G00 Z5.000000
G00 X19.286694 Y33.461032
M03 S1(Turn spray on)
 
G01 Z-1.000000 F1.0(Penetrate)
G01 X19.286694 Y41.374001 Z-1.000000 F0.500000
G00 Z5.000000
M05 (Turn spray off)
 
(Change tool to Graffiti)
(Add G00 here to change sprayer if needed)
G00 Z5.000000
G00 X19.286694 Y55.114422
M03 S1(Turn spray on)
 
G01 Z-1.000000 F1.0(Penetrate)
G01 X19.286694 Y58.100674 Z-1.000000 F0.500000
G00 Z5.000000
M05 (Turn spray off)
 
(Change tool to Graffiti)
(Add G00 here to change sprayer if needed)
G00 Z5.000000
G00 X19.286694 Y74.216686
M03 S1(Turn spray on)
 
G01 Z-1.000000 F1.0(Penetrate)
G01 X19.286694 Y74.936689 Z-1.000000 F0.500000
G00 Z5.000000
M05 (Turn spray off)
 
(Change tool to Graffiti)
(Add G00 here to change sprayer if needed)
G00 Z5.000000
G00 X19.786694 Y74.821330
M03 S1(Turn spray on)
 
G01 Z-1.000000 F1.0(Penetrate)
G01 X19.786694 Y73.646606 Z-1.000000 F0.500000
G00 Z5.000000
M05 (Turn spray off)
 
(Change tool to Graffiti)
(Add G00 here to change sprayer if needed)
G00 Z5.000000
G00 X19.786694 Y58.355546
M03 S1(Turn spray on)
 
G01 Z-1.000000 F1.0(Penetrate)
G01 X19.786694 Y55.037488 Z-1.000000 F0.500000
G00 Z5.000000
M05 (Turn spray off)
 
(Change tool to Graffiti)
(Add G00 here to change sprayer if needed)
G00 Z5.000000
G00 X19.786694 Y41.922947
M03 S1(Turn spray on)
 
G01 Z-1.000000 F1.0(Penetrate)
G01 X19.786694 Y32.912086 Z-1.000000 F0.500000
G00 Z5.000000
M05 (Turn spray off)
 
(Change tool to Graffiti)
(Add G00 here to change sprayer if needed)
G00 Z5.000000
G00 X20.286694 Y32.478087
M03 S1(Turn spray on)
 
G01 Z-1.000000 F1.0(Penetrate)
G01 X20.286694 Y42.356945 Z-1.000000 F0.500000
G00 Z5.000000
M05 (Turn spray off)
 
(Change tool to Graffiti)
(Add G00 here to change sprayer if needed)
G00 Z5.000000
G00 X20.286694 Y54.960553
M03 S1(Turn spray on)
 
G01 Z-1.000000 F1.0(Penetrate)
G01 X20.286694 Y58.610417 Z-1.000000 F0.500000
G00 Z5.000000
M05 (Turn spray off)
 
(Change tool to Graffiti)
(Add G00 here to change sprayer if needed)
G00 Z5.000000
G00 X20.286694 Y73.076527
M03 S1(Turn spray on)
 
G01 Z-1.000000 F1.0(Penetrate)
G01 X20.286694 Y74.705971 Z-1.000000 F0.500000
G00 Z5.000000
M05 (Turn spray off)
 
(Change tool to Graffiti)
(Add G00 here to change sprayer if needed)
G00 Z5.000000
G00 X20.786694 Y74.590612
M03 S1(Turn spray on)
 
G01 Z-1.000000 F1.0(Penetrate)
G01 X20.786694 Y72.506448 Z-1.000000 F0.500000
G00 Z5.000000
M05 (Turn spray off)
 
(Change tool to Graffiti)
(Add G00 here to change sprayer if needed)
G00 Z5.000000
G00 X20.786694 Y58.865289
M03 S1(Turn spray on)
 
G01 Z-1.000000 F1.0(Penetrate)
G01 X20.786694 Y54.883619 Z-1.000000 F0.500000
G00 Z5.000000
M05 (Turn spray off)
 
(Change tool to Graffiti)
(Add G00 here to change sprayer if needed)
G00 Z5.000000
G00 X20.786694 Y42.704309
M03 S1(Turn spray on)
 
G01 Z-1.000000 F1.0(Penetrate)
G01 X20.786694 Y32.130723 Z-1.000000 F0.500000
G00 Z5.000000
M05 (Turn spray off)
 
(Change tool to Graffiti)
(Add G00 here to change sprayer if needed)
G00 Z5.000000
G00 X21.286694 Y31.853721
M03 S1(Turn spray on)
 
G01 Z-1.000000 F1.0(Penetrate)
G01 X21.286694 Y42.981312 Z-1.000000 F0.500000
G00 Z5.000000
M05 (Turn spray off)
 
(Change tool to Graffiti)
(Add G00 here to change sprayer if needed)
G00 Z5.000000
G00 X21.286694 Y54.806685
M03 S1(Turn spray on)
 
G01 Z-1.000000 F1.0(Penetrate)
G01 X21.286694 Y59.120160 Z-1.000000 F0.500000
G00 Z5.000000
M05 (Turn spray off)
 
(Change tool to Graffiti)
(Add G00 here to change sprayer if needed)
G00 Z5.000000
G00 X21.286694 Y71.936368
M03 S1(Turn spray on)
 
G01 Z-1.000000 F1.0(Penetrate)
G01 X21.286694 Y74.475253 Z-1.000000 F0.500000
G00 Z5.000000
M05 (Turn spray off)
 
(Change tool to Graffiti)
(Add G00 here to change sprayer if needed)
G00 Z5.000000
G00 X21.786694 Y74.359893
M03 S1(Turn spray on)
 
G01 Z-1.000000 F1.0(Penetrate)
G01 X21.786694 Y71.366289 Z-1.000000 F0.500000
G00 Z5.000000
M05 (Turn spray off)
 
(Change tool to Graffiti)
(Add G00 here to change sprayer if needed)
G00 Z5.000000
G00 X21.786694 Y59.375031
M03 S1(Turn spray on)
 
G01 Z-1.000000 F1.0(Penetrate)
G01 X21.786694 Y54.729750 Z-1.000000 F0.500000
G00 Z5.000000
M05 (Turn spray off)
 
(Change tool to Graffiti)
(Add G00 here to change sprayer if needed)
G00 Z5.000000
G00 X21.786694 Y43.198102
M03 S1(Turn spray on)
 
G01 Z-1.000000 F1.0(Penetrate)
G01 X21.786694 Y31.636931 Z-1.000000 F0.500000
G00 Z5.000000
M05 (Turn spray off)
 
(Change tool to Graffiti)
(Add G00 here to change sprayer if needed)
G00 Z5.000000
G00 X22.286694 Y31.473763
M03 S1(Turn spray on)
 
G01 Z-1.000000 F1.0(Penetrate)
G01 X22.286694 Y43.361270 Z-1.000000 F0.500000
G00 Z5.000000
M05 (Turn spray off)
 
(Change tool to Graffiti)
(Add G00 here to change sprayer if needed)
G00 Z5.000000
G00 X22.286694 Y54.652816
M03 S1(Turn spray on)
 
G01 Z-1.000000 F1.0(Penetrate)
G01 X22.286694 Y59.629903 Z-1.000000 F0.500000
G00 Z5.000000
M05 (Turn spray off)
 
(Change tool to Graffiti)
(Add G00 here to change sprayer if needed)
G00 Z5.000000
G00 X22.286694 Y70.796210
M03 S1(Turn spray on)
 
G01 Z-1.000000 F1.0(Penetrate)
G01 X22.286694 Y74.244534 Z-1.000000 F0.500000
G00 Z5.000000
M05 (Turn spray off)
 
(Change tool to Graffiti)
(Add G00 here to change sprayer if needed)
G00 Z5.000000
G00 X22.786694 Y74.129175
M03 S1(Turn spray on)
 
G01 Z-1.000000 F1.0(Penetrate)
G01 X22.786694 Y70.226130 Z-1.000000 F0.500000
G00 Z5.000000
M05 (Turn spray off)
 
(Change tool to Graffiti)
(Add G00 here to change sprayer if needed)
G00 Z5.000000
G00 X22.786694 Y59.884774
M03 S1(Turn spray on)
 
G01 Z-1.000000 F1.0(Penetrate)
G01 X22.786694 Y54.575881 Z-1.000000 F0.500000
G00 Z5.000000
M05 (Turn spray off)
 
(Change tool to Graffiti)
(Add G00 here to change sprayer if needed)
G00 Z5.000000
G00 X22.786694 Y43.475132
M03 S1(Turn spray on)
 
G01 Z-1.000000 F1.0(Penetrate)
G01 X22.786694 Y31.359901 Z-1.000000 F0.500000
G00 Z5.000000
M05 (Turn spray off)
 
(Change tool to Graffiti)
(Add G00 here to change sprayer if needed)
G00 Z5.000000
G00 X23.286694 Y31.292610
M03 S1(Turn spray on)
 
G01 Z-1.000000 F1.0(Penetrate)
G01 X23.286694 Y43.542422 Z-1.000000 F0.500000
G00 Z5.000000
M05 (Turn spray off)
 
(Change tool to Graffiti)
(Add G00 here to change sprayer if needed)
G00 Z5.000000
G00 X23.286694 Y54.498947
M03 S1(Turn spray on)
 
G01 Z-1.000000 F1.0(Penetrate)
G01 X23.286694 Y60.139646 Z-1.000000 F0.500000
G00 Z5.000000
M05 (Turn spray off)
 
(Change tool to Graffiti)
(Add G00 here to change sprayer if needed)
G00 Z5.000000
G00 X23.286694 Y69.656051
M03 S1(Turn spray on)
 
G01 Z-1.000000 F1.0(Penetrate)
G01 X23.286694 Y74.013816 Z-1.000000 F0.500000
G00 Z5.000000
M05 (Turn spray off)
 
(Change tool to Graffiti)
(Add G00 here to change sprayer if needed)
G00 Z5.000000
G00 X23.786694 Y73.898457
M03 S1(Turn spray on)
 
G01 Z-1.000000 F1.0(Penetrate)
G01 X23.786694 Y69.085972 Z-1.000000 F0.500000
G00 Z5.000000
M05 (Turn spray off)
 
(Change tool to Graffiti)
(Add G00 here to change sprayer if needed)
G00 Z5.000000
G00 X23.786694 Y60.394517
M03 S1(Turn spray on)
 
G01 Z-1.000000 F1.0(Penetrate)
G01 X23.786694 Y54.422013 Z-1.000000 F0.500000
G00 Z5.000000
M05 (Turn spray off)
 
(Change tool to Graffiti)
(Add G00 here to change sprayer if needed)
G00 Z5.000000
G00 X23.786694 Y43.564685
M03 S1(Turn spray on)
 
G01 Z-1.000000 F1.0(Penetrate)
G01 X23.786694 Y31.270347 Z-1.000000 F0.500000
G00 Z5.000000
M05 (Turn spray off)
 
(Change tool to Graffiti)
(Add G00 here to change sprayer if needed)
G00 Z5.000000
G00 X23.786846 Y31.270347
M03 S1(Turn spray on)
 
G01 Z-1.000000 F1.0(Penetrate)
G01 X23.786846 Y31.270347 Z-1.000000 F0.500000
G00 Z5.000000
M05 (Turn spray off)
 
(Change tool to Graffiti)
(Add G00 here to change sprayer if needed)
G00 Z5.000000
G00 X24.286694 Y31.292570
M03 S1(Turn spray on)
 
G01 Z-1.000000 F1.0(Penetrate)
G01 X24.286694 Y43.541218 Z-1.000000 F0.500000
G00 Z5.000000
M05 (Turn spray off)
 
(Change tool to Graffiti)
(Add G00 here to change sprayer if needed)
G00 Z5.000000
G00 X24.286694 Y54.345078
M03 S1(Turn spray on)
 
G01 Z-1.000000 F1.0(Penetrate)
G01 X24.286694 Y60.649388 Z-1.000000 F0.500000
G00 Z5.000000
M05 (Turn spray off)
 
(Change tool to Graffiti)
(Add G00 here to change sprayer if needed)
G00 Z5.000000
G00 X24.286694 Y68.515892
M03 S1(Turn spray on)
 
G01 Z-1.000000 F1.0(Penetrate)
G01 X24.286694 Y73.783098 Z-1.000000 F0.500000
G00 Z5.000000
M05 (Turn spray off)
 
(Change tool to Graffiti)
(Add G00 here to change sprayer if needed)
G00 Z5.000000
G00 X24.786694 Y73.667739
M03 S1(Turn spray on)
 
G01 Z-1.000000 F1.0(Penetrate)
G01 X24.786694 Y67.945813 Z-1.000000 F0.500000
G00 Z5.000000
M05 (Turn spray off)
 
(Change tool to Graffiti)
(Add G00 here to change sprayer if needed)
G00 Z5.000000
G00 X24.786694 Y60.904260
M03 S1(Turn spray on)
 
G01 Z-1.000000 F1.0(Penetrate)
G01 X24.786694 Y54.268144 Z-1.000000 F0.500000
G00 Z5.000000
M05 (Turn spray off)
 
(Change tool to Graffiti)
(Add G00 here to change sprayer if needed)
G00 Z5.000000
G00 X24.786694 Y43.472700
M03 S1(Turn spray on)
 
G01 Z-1.000000 F1.0(Penetrate)
G01 X24.786694 Y31.359820 Z-1.000000 F0.500000
G00 Z5.000000
M05 (Turn spray off)
 
(Change tool to Graffiti)
(Add G00 here to change sprayer if needed)
G00 Z5.000000
G00 X25.286694 Y31.473639
M03 S1(Turn spray on)
 
G01 Z-1.000000 F1.0(Penetrate)
G01 X25.286694 Y43.357574 Z-1.000000 F0.500000
G00 Z5.000000
M05 (Turn spray off)
 
(Change tool to Graffiti)
(Add G00 here to change sprayer if needed)
G00 Z5.000000
G00 X25.286694 Y54.191209
M03 S1(Turn spray on)
 
G01 Z-1.000000 F1.0(Penetrate)
G01 X25.286694 Y61.159131 Z-1.000000 F0.500000
G00 Z5.000000
M05 (Turn spray off)
 
(Change tool to Graffiti)
(Add G00 here to change sprayer if needed)
G00 Z5.000000
G00 X25.286694 Y67.375734
M03 S1(Turn spray on)
 
G01 Z-1.000000 F1.0(Penetrate)
G01 X25.286694 Y73.552379 Z-1.000000 F0.500000
G00 Z5.000000
M05 (Turn spray off)
 
(Change tool to Graffiti)
(Add G00 here to change sprayer if needed)
G00 Z5.000000
G00 X25.786694 Y73.437020
M03 S1(Turn spray on)
 
G01 Z-1.000000 F1.0(Penetrate)
G01 X25.786694 Y66.805654 Z-1.000000 F0.500000
G00 Z5.000000
M05 (Turn spray off)
 
(Change tool to Graffiti)
(Add G00 here to change sprayer if needed)
G00 Z5.000000
G00 X25.786694 Y61.414003
M03 S1(Turn spray on)
 
G01 Z-1.000000 F1.0(Penetrate)
G01 X25.786694 Y54.114275 Z-1.000000 F0.500000
G00 Z5.000000
M05 (Turn spray off)
 
(Change tool to Graffiti)
(Add G00 here to change sprayer if needed)
G00 Z5.000000
G00 X25.786694 Y43.193055
M03 S1(Turn spray on)
 
G01 Z-1.000000 F1.0(Penetrate)
G01 X25.786694 Y31.636760 Z-1.000000 F0.500000
G00 Z5.000000
M05 (Turn spray off)
 
(Change tool to Graffiti)
(Add G00 here to change sprayer if needed)
G00 Z5.000000
G00 X26.286694 Y31.853499
M03 S1(Turn spray on)
 
G01 Z-1.000000 F1.0(Penetrate)
G01 X26.286694 Y43.169941 Z-1.000000 F0.500000
G00 Z5.000000
M05 (Turn spray off)
 
(Change tool to Graffiti)
(Add G00 here to change sprayer if needed)
G00 Z5.000000
G00 X26.286694 Y54.037341
M03 S1(Turn spray on)
 
G01 Z-1.000000 F1.0(Penetrate)
G01 X26.286694 Y61.668874 Z-1.000000 F0.500000
G00 Z5.000000
M05 (Turn spray off)
 
(Change tool to Graffiti)
(Add G00 here to change sprayer if needed)
G00 Z5.000000
G00 X26.286694 Y66.235575
M03 S1(Turn spray on)
 
G01 Z-1.000000 F1.0(Penetrate)
G01 X26.286694 Y73.321661 Z-1.000000 F0.500000
G00 Z5.000000
M05 (Turn spray off)
 
(Change tool to Graffiti)
(Add G00 here to change sprayer if needed)
G00 Z5.000000
G00 X26.786694 Y73.206302
M03 S1(Turn spray on)
 
G01 Z-1.000000 F1.0(Penetrate)
G01 X26.786694 Y65.665496 Z-1.000000 F0.500000
G00 Z5.000000
M05 (Turn spray off)
 
(Change tool to Graffiti)
(Add G00 here to change sprayer if needed)
G00 Z5.000000
G00 X26.786694 Y61.923746
M03 S1(Turn spray on)
 
G01 Z-1.000000 F1.0(Penetrate)
G01 X26.786694 Y53.960406 Z-1.000000 F0.500000
G00 Z5.000000
M05 (Turn spray off)
 
(Change tool to Graffiti)
(Add G00 here to change sprayer if needed)
G00 Z5.000000
G00 X26.786694 Y44.348340
M03 S1(Turn spray on)
 
G01 Z-1.000000 F1.0(Penetrate)
G01 X26.786694 Y32.130444 Z-1.000000 F0.500000
G00 Z5.000000
M05 (Turn spray off)
 
(Change tool to Graffiti)
(Add G00 here to change sprayer if needed)
G00 Z5.000000
G00 X27.286694 Y32.477738
M03 S1(Turn spray on)
 
G01 Z-1.000000 F1.0(Penetrate)
G01 X27.286694 Y45.526739 Z-1.000000 F0.500000
G00 Z5.000000
M05 (Turn spray off)
 
(Change tool to Graffiti)
(Add G00 here to change sprayer if needed)
G00 Z5.000000
G00 X27.286694 Y53.883472
M03 S1(Turn spray on)
 
G01 Z-1.000000 F1.0(Penetrate)
G01 X27.286694 Y62.178617 Z-1.000000 F0.500000
G00 Z5.000000
M05 (Turn spray off)
 
(Change tool to Graffiti)
(Add G00 here to change sprayer if needed)
G00 Z5.000000
G00 X27.286694 Y65.095416
M03 S1(Turn spray on)
 
G01 Z-1.000000 F1.0(Penetrate)
G01 X27.286694 Y73.090943 Z-1.000000 F0.500000
G00 Z5.000000
M05 (Turn spray off)
 
(Change tool to Graffiti)
(Add G00 here to change sprayer if needed)
G00 Z5.000000
G00 X27.786694 Y72.975584
M03 S1(Turn spray on)
 
G01 Z-1.000000 F1.0(Penetrate)
G01 X27.786694 Y64.525337 Z-1.000000 F0.500000
G00 Z5.000000
M05 (Turn spray off)
 
(Change tool to Graffiti)
(Add G00 here to change sprayer if needed)
G00 Z5.000000
G00 X27.786694 Y62.433488
M03 S1(Turn spray on)
 
G01 Z-1.000000 F1.0(Penetrate)
G01 X27.786694 Y53.806537 Z-1.000000 F0.500000
G00 Z5.000000
M05 (Turn spray off)
 
(Change tool to Graffiti)
(Add G00 here to change sprayer if needed)
G00 Z5.000000
G00 X27.786694 Y46.705138
M03 S1(Turn spray on)
 
G01 Z-1.000000 F1.0(Penetrate)
G01 X27.786694 Y32.911648 Z-1.000000 F0.500000
G00 Z5.000000
M05 (Turn spray off)
 
(Change tool to Graffiti)
(Add G00 here to change sprayer if needed)
G00 Z5.000000
G00 X28.286694 Y33.460472
M03 S1(Turn spray on)
 
G01 Z-1.000000 F1.0(Penetrate)
G01 X28.286694 Y47.883537 Z-1.000000 F0.500000
G00 Z5.000000
M05 (Turn spray off)
 
(Change tool to Graffiti)
(Add G00 here to change sprayer if needed)
G00 Z5.000000
G00 X28.286694 Y53.729603
M03 S1(Turn spray on)
 
G01 Z-1.000000 F1.0(Penetrate)
G01 X28.286694 Y62.688360 Z-1.000000 F0.500000
G00 Z5.000000
M05 (Turn spray off)
 
(Change tool to Graffiti)
(Add G00 here to change sprayer if needed)
G00 Z5.000000
G00 X28.286694 Y63.955258
M03 S1(Turn spray on)
 
G01 Z-1.000000 F1.0(Penetrate)
G01 X28.286694 Y72.860225 Z-1.000000 F0.500000
G00 Z5.000000
M05 (Turn spray off)
 
(Change tool to Graffiti)
(Add G00 here to change sprayer if needed)
G00 Z5.000000
G00 X28.786694 Y72.744866
M03 S1(Turn spray on)
 
G01 Z-1.000000 F1.0(Penetrate)
G01 X28.786694 Y63.385178 Z-1.000000 F0.500000
G00 Z5.000000
M05 (Turn spray off)
 
(Change tool to Graffiti)
(Add G00 here to change sprayer if needed)
G00 Z5.000000
G00 X28.786694 Y62.943231
M03 S1(Turn spray on)
 
G01 Z-1.000000 F1.0(Penetrate)
G01 X28.786694 Y53.652669 Z-1.000000 F0.500000
G00 Z5.000000
M05 (Turn spray off)
 
(Change tool to Graffiti)
(Add G00 here to change sprayer if needed)
G00 Z5.000000
G00 X28.786694 Y49.061936
M03 S1(Turn spray on)
 
G01 Z-1.000000 F1.0(Penetrate)
G01 X28.786694 Y41.316023 Z-1.000000 F0.500000
G00 Z5.000000
M05 (Turn spray off)
 
(Change tool to Graffiti)
(Add G00 here to change sprayer if needed)
G00 Z5.000000
G00 X28.786694 Y40.644037
M03 S1(Turn spray on)
 
G01 Z-1.000000 F1.0(Penetrate)
G01 X28.786694 Y34.182243 Z-1.000000 F0.500000
G00 Z5.000000
M05 (Turn spray off)
 
(Change tool to Graffiti)
(Add G00 here to change sprayer if needed)
G00 Z5.000000
G00 X29.286694 Y35.242885
M03 S1(Turn spray on)
 
G01 Z-1.000000 F1.0(Penetrate)
G01 X29.286694 Y39.583427 Z-1.000000 F0.500000
G00 Z5.000000
M05 (Turn spray off)
 
(Change tool to Graffiti)
(Add G00 here to change sprayer if needed)
G00 Z5.000000
G00 X29.286694 Y41.619443
M03 S1(Turn spray on)
 
G01 Z-1.000000 F1.0(Penetrate)
G01 X29.286694 Y50.240335 Z-1.000000 F0.500000
G00 Z5.000000
M05 (Turn spray off)
 
(Change tool to Graffiti)
(Add G00 here to change sprayer if needed)
G00 Z5.000000
G00 X29.286694 Y53.575734
M03 S1(Turn spray on)
 
G01 Z-1.000000 F1.0(Penetrate)
G01 X29.286694 Y72.629506 Z-1.000000 F0.500000
G00 Z5.000000
M05 (Turn spray off)
 
(Change tool to Graffiti)
(Add G00 here to change sprayer if needed)
G00 Z5.000000
G00 X29.786694 Y72.514147
M03 S1(Turn spray on)
 
G01 Z-1.000000 F1.0(Penetrate)
G01 X29.786694 Y53.498800 Z-1.000000 F0.500000
G00 Z5.000000
M05 (Turn spray off)
 
(Change tool to Graffiti)
(Add G00 here to change sprayer if needed)
G00 Z5.000000
G00 X29.786694 Y51.418734
M03 S1(Turn spray on)
 
G01 Z-1.000000 F1.0(Penetrate)
G01 X29.786694 Y41.922863 Z-1.000000 F0.500000
G00 Z5.000000
M05 (Turn spray off)
 
(Change tool to Graffiti)
(Add G00 here to change sprayer if needed)
G00 Z5.000000
G00 X30.286694 Y42.226284
M03 S1(Turn spray on)
 
G01 Z-1.000000 F1.0(Penetrate)
G01 X30.286694 Y52.597133 Z-1.000000 F0.500000
G00 Z5.000000
M05 (Turn spray off)
 
(Change tool to Graffiti)
(Add G00 here to change sprayer if needed)
G00 Z5.000000
G00 X30.286694 Y53.421865
M03 S1(Turn spray on)
 
G01 Z-1.000000 F1.0(Penetrate)
G01 X30.286694 Y72.398788 Z-1.000000 F0.500000
G00 Z5.000000
M05 (Turn spray off)
 
(Change tool to Graffiti)
(Add G00 here to change sprayer if needed)
G00 Z5.000000
G00 X30.786694 Y72.283429
M03 S1(Turn spray on)
 
G01 Z-1.000000 F1.0(Penetrate)
G01 X30.786694 Y42.529704 Z-1.000000 F0.500000
G00 Z5.000000
M05 (Turn spray off)
 
(Change tool to Graffiti)
(Add G00 here to change sprayer if needed)
G00 Z5.000000
G00 X31.286694 Y42.833124
M03 S1(Turn spray on)
 
G01 Z-1.000000 F1.0(Penetrate)
G01 X31.286694 Y72.168070 Z-1.000000 F0.500000
G00 Z5.000000
M05 (Turn spray off)
 
(Change tool to Graffiti)
(Add G00 here to change sprayer if needed)
G00 Z5.000000
G00 X31.786694 Y72.052711
M03 S1(Turn spray on)
 
G01 Z-1.000000 F1.0(Penetrate)
G01 X31.786694 Y43.136544 Z-1.000000 F0.500000
G00 Z5.000000
M05 (Turn spray off)
 
(Change tool to Graffiti)
(Add G00 here to change sprayer if needed)
G00 Z5.000000
G00 X32.286694 Y43.439964
M03 S1(Turn spray on)
 
G01 Z-1.000000 F1.0(Penetrate)
G01 X32.286694 Y71.937352 Z-1.000000 F0.500000
G00 Z5.000000
M05 (Turn spray off)
 
(Change tool to Graffiti)
(Add G00 here to change sprayer if needed)
G00 Z5.000000
G00 X32.786694 Y71.821992
M03 S1(Turn spray on)
 
G01 Z-1.000000 F1.0(Penetrate)
G01 X32.786694 Y43.743384 Z-1.000000 F0.500000
G00 Z5.000000
M05 (Turn spray off)
 
(Change tool to Graffiti)
(Add G00 here to change sprayer if needed)
G00 Z5.000000
G00 X33.286694 Y44.046804
M03 S1(Turn spray on)
 
G01 Z-1.000000 F1.0(Penetrate)
G01 X33.286694 Y71.706633 Z-1.000000 F0.500000
G00 Z5.000000
M05 (Turn spray off)
 
(Change tool to Graffiti)
(Add G00 here to change sprayer if needed)
G00 Z5.000000
G00 X33.749877 Y87.529960
M03 S1(Turn spray on)
 
G01 Z-1.000000 F1.0(Penetrate)
G01 X33.749877 Y87.529960 Z-1.000000 F0.500000
G00 Z5.000000
M05 (Turn spray off)
 
(Change tool to Graffiti)
(Add G00 here to change sprayer if needed)
G00 Z5.000000
G00 X33.749877 Y87.529960
M03 S1(Turn spray on)
 
G01 Z-1.000000 F1.0(Penetrate)
G01 X33.749877 Y87.529960 Z-1.000000 F0.500000
G00 Z5.000000
M05 (Turn spray off)
 
(Change tool to Graffiti)
(Add G00 here to change sprayer if needed)
G00 Z5.000000
G00 X33.749877 Y87.529960
M03 S1(Turn spray on)
 
G01 Z-1.000000 F1.0(Penetrate)
G01 X33.749877 Y87.529960 Z-1.000000 F0.500000
G00 Z5.000000
M05 (Turn spray off)
 
(Change tool to Graffiti)
(Add G00 here to change sprayer if needed)
G00 Z5.000000
G00 X33.786694 Y87.481114
M03 S1(Turn spray on)
 
G01 Z-1.000000 F1.0(Penetrate)
G01 X33.786694 Y85.844999 Z-1.000000 F0.500000
G00 Z5.000000
M05 (Turn spray off)
 
(Change tool to Graffiti)
(Add G00 here to change sprayer if needed)
G00 Z5.000000
G00 X33.786694 Y71.591274
M03 S1(Turn spray on)
 
G01 Z-1.000000 F1.0(Penetrate)
G01 X33.786694 Y44.350224 Z-1.000000 F0.500000
G00 Z5.000000
M05 (Turn spray off)
 
(Change tool to Graffiti)
(Add G00 here to change sprayer if needed)
G00 Z5.000000
G00 X34.286694 Y44.653645
M03 S1(Turn spray on)
 
G01 Z-1.000000 F1.0(Penetrate)
G01 X34.286694 Y86.817762 Z-1.000000 F0.500000
G00 Z5.000000
M05 (Turn spray off)
 
(Change tool to Graffiti)
(Add G00 here to change sprayer if needed)
G00 Z5.000000
G00 X34.786694 Y86.154411
M03 S1(Turn spray on)
 
G01 Z-1.000000 F1.0(Penetrate)
G01 X34.786694 Y44.957065 Z-1.000000 F0.500000
G00 Z5.000000
M05 (Turn spray off)
 
(Change tool to Graffiti)
(Add G00 here to change sprayer if needed)
G00 Z5.000000
G00 X35.286694 Y45.260485
M03 S1(Turn spray on)
 
G01 Z-1.000000 F1.0(Penetrate)
G01 X35.286694 Y85.491059 Z-1.000000 F0.500000
G00 Z5.000000
M05 (Turn spray off)
 
(Change tool to Graffiti)
(Add G00 here to change sprayer if needed)
G00 Z5.000000
G00 X35.786694 Y84.827707
M03 S1(Turn spray on)
 
G01 Z-1.000000 F1.0(Penetrate)
G01 X35.786694 Y45.563905 Z-1.000000 F0.500000
G00 Z5.000000
M05 (Turn spray off)
 
(Change tool to Graffiti)
(Add G00 here to change sprayer if needed)
G00 Z5.000000
G00 X36.286694 Y45.867325
M03 S1(Turn spray on)
 
G01 Z-1.000000 F1.0(Penetrate)
G01 X36.286694 Y84.164355 Z-1.000000 F0.500000
G00 Z5.000000
M05 (Turn spray off)
 
(Change tool to Graffiti)
(Add G00 here to change sprayer if needed)
G00 Z5.000000
G00 X36.786694 Y83.501004
M03 S1(Turn spray on)
 
G01 Z-1.000000 F1.0(Penetrate)
G01 X36.786694 Y46.170745 Z-1.000000 F0.500000
G00 Z5.000000
M05 (Turn spray off)
 
(Change tool to Graffiti)
(Add G00 here to change sprayer if needed)
G00 Z5.000000
G00 X37.286694 Y46.474165
M03 S1(Turn spray on)
 
G01 Z-1.000000 F1.0(Penetrate)
G01 X37.286694 Y82.837652 Z-1.000000 F0.500000
G00 Z5.000000
M05 (Turn spray off)
 
(Change tool to Graffiti)
(Add G00 here to change sprayer if needed)
G00 Z5.000000
G00 X37.786694 Y82.174300
M03 S1(Turn spray on)
 
G01 Z-1.000000 F1.0(Penetrate)
G01 X37.786694 Y46.777585 Z-1.000000 F0.500000
G00 Z5.000000
M05 (Turn spray off)
 
(Change tool to Graffiti)
(Add G00 here to change sprayer if needed)
G00 Z5.000000
G00 X38.286694 Y46.165115
M03 S1(Turn spray on)
 
G01 Z-1.000000 F1.0(Penetrate)
G01 X38.286694 Y81.510948 Z-1.000000 F0.500000
G00 Z5.000000
M05 (Turn spray off)
 
(Change tool to Graffiti)
(Add G00 here to change sprayer if needed)
G00 Z5.000000
G00 X38.786694 Y80.847597
M03 S1(Turn spray on)
 
G01 Z-1.000000 F1.0(Penetrate)
G01 X38.786694 Y44.530587 Z-1.000000 F0.500000
G00 Z5.000000
M05 (Turn spray off)
 
(Change tool to Graffiti)
(Add G00 here to change sprayer if needed)
G00 Z5.000000
G00 X39.286694 Y42.896059
M03 S1(Turn spray on)
 
G01 Z-1.000000 F1.0(Penetrate)
G01 X39.286694 Y80.184245 Z-1.000000 F0.500000
G00 Z5.000000
M05 (Turn spray off)
 
(Change tool to Graffiti)
(Add G00 here to change sprayer if needed)
G00 Z5.000000
G00 X39.786694 Y79.520893
M03 S1(Turn spray on)
 
G01 Z-1.000000 F1.0(Penetrate)
G01 X39.786694 Y41.261530 Z-1.000000 F0.500000
G00 Z5.000000
M05 (Turn spray off)
 
(Change tool to Graffiti)
(Add G00 here to change sprayer if needed)
G00 Z5.000000
G00 X40.286694 Y39.627002
M03 S1(Turn spray on)
 
G01 Z-1.000000 F1.0(Penetrate)
G01 X40.286694 Y78.857541 Z-1.000000 F0.500000
G00 Z5.000000
M05 (Turn spray off)
 
(Change tool to Graffiti)
(Add G00 here to change sprayer if needed)
G00 Z5.000000
G00 X40.786694 Y78.194190
M03 S1(Turn spray on)
 
G01 Z-1.000000 F1.0(Penetrate)
G01 X40.786694 Y37.992474 Z-1.000000 F0.500000
G00 Z5.000000
M05 (Turn spray off)
 
(Change tool to Graffiti)
(Add G00 here to change sprayer if needed)
G00 Z5.000000
G00 X41.286694 Y36.357945
M03 S1(Turn spray on)
 
G01 Z-1.000000 F1.0(Penetrate)
G01 X41.286694 Y77.530838 Z-1.000000 F0.500000
G00 Z5.000000
M05 (Turn spray off)
 
(Change tool to Graffiti)
(Add G00 here to change sprayer if needed)
G00 Z5.000000
G00 X41.786694 Y76.867486
M03 S1(Turn spray on)
 
G01 Z-1.000000 F1.0(Penetrate)
G01 X41.786694 Y34.723417 Z-1.000000 F0.500000
G00 Z5.000000
M05 (Turn spray off)
 
(Change tool to Graffiti)
(Add G00 here to change sprayer if needed)
G00 Z5.000000
G00 X42.286694 Y33.088889
M03 S1(Turn spray on)
 
G01 Z-1.000000 F1.0(Penetrate)
G01 X42.286694 Y76.204134 Z-1.000000 F0.500000
G00 Z5.000000
M05 (Turn spray off)
 
(Change tool to Graffiti)
(Add G00 here to change sprayer if needed)
G00 Z5.000000
G00 X42.786694 Y75.540783
M03 S1(Turn spray on)
 
G01 Z-1.000000 F1.0(Penetrate)
G01 X42.786694 Y31.776533 Z-1.000000 F0.500000
G00 Z5.000000
M05 (Turn spray off)
 
(Change tool to Graffiti)
(Add G00 here to change sprayer if needed)
G00 Z5.000000
G00 X43.286694 Y33.249676
M03 S1(Turn spray on)
 
G01 Z-1.000000 F1.0(Penetrate)
G01 X43.286694 Y74.877431 Z-1.000000 F0.500000
G00 Z5.000000
M05 (Turn spray off)
 
(Change tool to Graffiti)
(Add G00 here to change sprayer if needed)
G00 Z5.000000
G00 X43.786694 Y75.237026
M03 S1(Turn spray on)
 
G01 Z-1.000000 F1.0(Penetrate)
G01 X43.786694 Y34.722819 Z-1.000000 F0.500000
G00 Z5.000000
M05 (Turn spray off)
 
(Change tool to Graffiti)
(Add G00 here to change sprayer if needed)
G00 Z5.000000
G00 X44.286694 Y36.195962
M03 S1(Turn spray on)
 
G01 Z-1.000000 F1.0(Penetrate)
G01 X44.286694 Y75.860035 Z-1.000000 F0.500000
G00 Z5.000000
M05 (Turn spray off)
 
(Change tool to Graffiti)
(Add G00 here to change sprayer if needed)
G00 Z5.000000
G00 X44.786694 Y76.483044
M03 S1(Turn spray on)
 
G01 Z-1.000000 F1.0(Penetrate)
G01 X44.786694 Y37.669105 Z-1.000000 F0.500000
G00 Z5.000000
M05 (Turn spray off)
 
(Change tool to Graffiti)
(Add G00 here to change sprayer if needed)
G00 Z5.000000
G00 X45.286694 Y39.142249
M03 S1(Turn spray on)
 
G01 Z-1.000000 F1.0(Penetrate)
G01 X45.286694 Y77.106052 Z-1.000000 F0.500000
G00 Z5.000000
M05 (Turn spray off)
 
(Change tool to Graffiti)
(Add G00 here to change sprayer if needed)
G00 Z5.000000
G00 X45.786694 Y77.729061
M03 S1(Turn spray on)
 
G01 Z-1.000000 F1.0(Penetrate)
G01 X45.786694 Y40.615392 Z-1.000000 F0.500000
G00 Z5.000000
M05 (Turn spray off)
 
(Change tool to Graffiti)
(Add G00 here to change sprayer if needed)
G00 Z5.000000
G00 X46.286694 Y42.088535
M03 S1(Turn spray on)
 
G01 Z-1.000000 F1.0(Penetrate)
G01 X46.286694 Y78.352070 Z-1.000000 F0.500000
G00 Z5.000000
M05 (Turn spray off)
 
(Change tool to Graffiti)
(Add G00 here to change sprayer if needed)
G00 Z5.000000
G00 X46.786694 Y78.975078
M03 S1(Turn spray on)
 
G01 Z-1.000000 F1.0(Penetrate)
G01 X46.786694 Y43.561678 Z-1.000000 F0.500000
G00 Z5.000000
M05 (Turn spray off)
 
(Change tool to Graffiti)
(Add G00 here to change sprayer if needed)
G00 Z5.000000
G00 X47.286694 Y45.034821
M03 S1(Turn spray on)
 
G01 Z-1.000000 F1.0(Penetrate)
G01 X47.286694 Y79.598087 Z-1.000000 F0.500000
G00 Z5.000000
M05 (Turn spray off)
 
(Change tool to Graffiti)
(Add G00 here to change sprayer if needed)
G00 Z5.000000
G00 X47.786694 Y80.221096
M03 S1(Turn spray on)
 
G01 Z-1.000000 F1.0(Penetrate)
G01 X47.786694 Y46.507964 Z-1.000000 F0.500000
G00 Z5.000000
M05 (Turn spray off)
 
(Change tool to Graffiti)
(Add G00 here to change sprayer if needed)
G00 Z5.000000
G00 X48.286694 Y46.525435
M03 S1(Turn spray on)
 
G01 Z-1.000000 F1.0(Penetrate)
G01 X48.286694 Y80.844104 Z-1.000000 F0.500000
G00 Z5.000000
M05 (Turn spray off)
 
(Change tool to Graffiti)
(Add G00 here to change sprayer if needed)
G00 Z5.000000
G00 X48.786694 Y81.467113
M03 S1(Turn spray on)
 
G01 Z-1.000000 F1.0(Penetrate)
G01 X48.786694 Y59.040597 Z-1.000000 F0.500000
G00 Z5.000000
M05 (Turn spray off)
 
(Change tool to Graffiti)
(Add G00 here to change sprayer if needed)
G00 Z5.000000
G00 X48.786694 Y56.419861
M03 S1(Turn spray on)
 
G01 Z-1.000000 F1.0(Penetrate)
G01 X48.786694 Y46.200848 Z-1.000000 F0.500000
G00 Z5.000000
M05 (Turn spray off)
 
(Change tool to Graffiti)
(Add G00 here to change sprayer if needed)
G00 Z5.000000
G00 X49.286694 Y45.876261
M03 S1(Turn spray on)
 
G01 Z-1.000000 F1.0(Penetrate)
G01 X49.286694 Y55.008912 Z-1.000000 F0.500000
G00 Z5.000000
M05 (Turn spray off)
 
(Change tool to Graffiti)
(Add G00 here to change sprayer if needed)
G00 Z5.000000
G00 X49.286694 Y60.451546
M03 S1(Turn spray on)
 
G01 Z-1.000000 F1.0(Penetrate)
G01 X49.286694 Y82.090121 Z-1.000000 F0.500000
G00 Z5.000000
M05 (Turn spray off)
 
(Change tool to Graffiti)
(Add G00 here to change sprayer if needed)
G00 Z5.000000
G00 X49.786694 Y82.713130
M03 S1(Turn spray on)
 
G01 Z-1.000000 F1.0(Penetrate)
G01 X49.786694 Y61.287139 Z-1.000000 F0.500000
G00 Z5.000000
M05 (Turn spray off)
 
(Change tool to Graffiti)
(Add G00 here to change sprayer if needed)
G00 Z5.000000
G00 X49.786694 Y54.173320
M03 S1(Turn spray on)
 
G01 Z-1.000000 F1.0(Penetrate)
G01 X49.786694 Y45.551673 Z-1.000000 F0.500000
G00 Z5.000000
M05 (Turn spray off)
 
(Change tool to Graffiti)
(Add G00 here to change sprayer if needed)
G00 Z5.000000
G00 X50.286694 Y45.227086
M03 S1(Turn spray on)
 
G01 Z-1.000000 F1.0(Penetrate)
G01 X50.286694 Y53.552403 Z-1.000000 F0.500000
G00 Z5.000000
M05 (Turn spray off)
 
(Change tool to Graffiti)
(Add G00 here to change sprayer if needed)
G00 Z5.000000
G00 X50.286694 Y61.908056
M03 S1(Turn spray on)
 
G01 Z-1.000000 F1.0(Penetrate)
G01 X50.286694 Y83.336139 Z-1.000000 F0.500000
G00 Z5.000000
M05 (Turn spray off)
 
(Change tool to Graffiti)
(Add G00 here to change sprayer if needed)
G00 Z5.000000
G00 X50.786694 Y83.959147
M03 S1(Turn spray on)
 
G01 Z-1.000000 F1.0(Penetrate)
G01 X50.786694 Y62.400768 Z-1.000000 F0.500000
G00 Z5.000000
M05 (Turn spray off)
 
(Change tool to Graffiti)
(Add G00 here to change sprayer if needed)
G00 Z5.000000
G00 X50.786694 Y53.059691
M03 S1(Turn spray on)
 
G01 Z-1.000000 F1.0(Penetrate)
G01 X50.786694 Y44.902498 Z-1.000000 F0.500000
G00 Z5.000000
M05 (Turn spray off)
 
(Change tool to Graffiti)
(Add G00 here to change sprayer if needed)
G00 Z5.000000
G00 X51.286694 Y44.577911
M03 S1(Turn spray on)
 
G01 Z-1.000000 F1.0(Penetrate)
G01 X51.286694 Y52.657645 Z-1.000000 F0.500000
G00 Z5.000000
M05 (Turn spray off)
 
(Change tool to Graffiti)
(Add G00 here to change sprayer if needed)
G00 Z5.000000
G00 X51.286694 Y62.802813
M03 S1(Turn spray on)
 
G01 Z-1.000000 F1.0(Penetrate)
G01 X51.286694 Y84.582156 Z-1.000000 F0.500000
G00 Z5.000000
M05 (Turn spray off)
 
(Change tool to Graffiti)
(Add G00 here to change sprayer if needed)
G00 Z5.000000
G00 X51.786694 Y85.205165
M03 S1(Turn spray on)
 
G01 Z-1.000000 F1.0(Penetrate)
G01 X51.786694 Y63.134402 Z-1.000000 F0.500000
G00 Z5.000000
M05 (Turn spray off)
 
(Change tool to Graffiti)
(Add G00 here to change sprayer if needed)
G00 Z5.000000
G00 X51.786694 Y52.326057
M03 S1(Turn spray on)
 
G01 Z-1.000000 F1.0(Penetrate)
G01 X51.786694 Y44.253323 Z-1.000000 F0.500000
G00 Z5.000000
M05 (Turn spray off)
 
(Change tool to Graffiti)
(Add G00 here to change sprayer if needed)
G00 Z5.000000
G00 X52.286694 Y43.928736
M03 S1(Turn spray on)
 
G01 Z-1.000000 F1.0(Penetrate)
G01 X52.286694 Y52.052558 Z-1.000000 F0.500000
G00 Z5.000000
M05 (Turn spray off)
 
(Change tool to Graffiti)
(Add G00 here to change sprayer if needed)
G00 Z5.000000
G00 X52.286694 Y63.407901
M03 S1(Turn spray on)
 
G01 Z-1.000000 F1.0(Penetrate)
G01 X52.286694 Y85.828173 Z-1.000000 F0.500000
G00 Z5.000000
M05 (Turn spray off)
 
(Change tool to Graffiti)
(Add G00 here to change sprayer if needed)
G00 Z5.000000
G00 X52.786694 Y86.451182
M03 S1(Turn spray on)
 
G01 Z-1.000000 F1.0(Penetrate)
G01 X52.786694 Y75.256718 Z-1.000000 F0.500000
G00 Z5.000000
M05 (Turn spray off)
 
(Change tool to Graffiti)
(Add G00 here to change sprayer if needed)
G00 Z5.000000
G00 X52.786694 Y71.280759
M03 S1(Turn spray on)
 
G01 Z-1.000000 F1.0(Penetrate)
G01 X52.786694 Y63.631414 Z-1.000000 F0.500000
G00 Z5.000000
M05 (Turn spray off)
 
(Change tool to Graffiti)
(Add G00 here to change sprayer if needed)
G00 Z5.000000
G00 X52.786694 Y51.829045
M03 S1(Turn spray on)
 
G01 Z-1.000000 F1.0(Penetrate)
G01 X52.786694 Y43.604149 Z-1.000000 F0.500000
G00 Z5.000000
M05 (Turn spray off)
 
(Change tool to Graffiti)
(Add G00 here to change sprayer if needed)
G00 Z5.000000
G00 X53.286694 Y43.279561
M03 S1(Turn spray on)
 
G01 Z-1.000000 F1.0(Penetrate)
G01 X53.286694 Y51.649993 Z-1.000000 F0.500000
G00 Z5.000000
M05 (Turn spray off)
 
(Change tool to Graffiti)
(Add G00 here to change sprayer if needed)
G00 Z5.000000
G00 X53.286694 Y63.810465
M03 S1(Turn spray on)
 
G01 Z-1.000000 F1.0(Penetrate)
G01 X53.286694 Y71.380236 Z-1.000000 F0.500000
G00 Z5.000000
M05 (Turn spray off)
 
(Change tool to Graffiti)
(Add G00 here to change sprayer if needed)
G00 Z5.000000
G00 X53.286694 Y84.820056
M03 S1(Turn spray on)
 
G01 Z-1.000000 F1.0(Penetrate)
G01 X53.286694 Y87.074191 Z-1.000000 F0.500000
G00 Z5.000000
M05 (Turn spray off)
 
(Change tool to Graffiti)
(Add G00 here to change sprayer if needed)
G00 Z5.000000
G00 X53.786694 Y71.479712
M03 S1(Turn spray on)
 
G01 Z-1.000000 F1.0(Penetrate)
G01 X53.786694 Y63.948891 Z-1.000000 F0.500000
G00 Z5.000000
M05 (Turn spray off)
 
(Change tool to Graffiti)
(Add G00 here to change sprayer if needed)
G00 Z5.000000
G00 X53.786694 Y51.511568
M03 S1(Turn spray on)
 
G01 Z-1.000000 F1.0(Penetrate)
G01 X53.786694 Y42.954974 Z-1.000000 F0.500000
G00 Z5.000000
M05 (Turn spray off)
 
(Change tool to Graffiti)
(Add G00 here to change sprayer if needed)
G00 Z5.000000
G00 X54.286694 Y36.966265
M03 S1(Turn spray on)
 
G01 Z-1.000000 F1.0(Penetrate)
G01 X54.286694 Y38.003757 Z-1.000000 F0.500000
G00 Z5.000000
M05 (Turn spray off)
 
(Change tool to Graffiti)
(Add G00 here to change sprayer if needed)
G00 Z5.000000
G00 X54.286694 Y42.630386
M03 S1(Turn spray on)
 
G01 Z-1.000000 F1.0(Penetrate)
G01 X54.286694 Y51.411112 Z-1.000000 F0.500000
G00 Z5.000000
M05 (Turn spray off)
 
(Change tool to Graffiti)
(Add G00 here to change sprayer if needed)
G00 Z5.000000
G00 X54.286694 Y64.049347
M03 S1(Turn spray on)
 
G01 Z-1.000000 F1.0(Penetrate)
G01 X54.286694 Y71.579189 Z-1.000000 F0.500000
G00 Z5.000000
M05 (Turn spray off)
 
(Change tool to Graffiti)
(Add G00 here to change sprayer if needed)
G00 Z5.000000
G00 X54.786694 Y71.678666
M03 S1(Turn spray on)
 
G01 Z-1.000000 F1.0(Penetrate)
G01 X54.786694 Y64.113616 Z-1.000000 F0.500000
G00 Z5.000000
M05 (Turn spray off)
 
(Change tool to Graffiti)
(Add G00 here to change sprayer if needed)
G00 Z5.000000
G00 X54.786694 Y51.346843
M03 S1(Turn spray on)
 
G01 Z-1.000000 F1.0(Penetrate)
G01 X54.786694 Y42.305799 Z-1.000000 F0.500000
G00 Z5.000000
M05 (Turn spray off)
 
(Change tool to Graffiti)
(Add G00 here to change sprayer if needed)
G00 Z5.000000
G00 X54.786694 Y39.549196
M03 S1(Turn spray on)
 
G01 Z-1.000000 F1.0(Penetrate)
G01 X54.786694 Y37.333726 Z-1.000000 F0.500000
G00 Z5.000000
M05 (Turn spray off)
 
(Change tool to Graffiti)
(Add G00 here to change sprayer if needed)
G00 Z5.000000
G00 X55.286694 Y37.701187
M03 S1(Turn spray on)
 
G01 Z-1.000000 F1.0(Penetrate)
G01 X55.286694 Y41.094636 Z-1.000000 F0.500000
G00 Z5.000000
M05 (Turn spray off)
 
(Change tool to Graffiti)
(Add G00 here to change sprayer if needed)
G00 Z5.000000
G00 X55.286694 Y41.981211
M03 S1(Turn spray on)
 
G01 Z-1.000000 F1.0(Penetrate)
G01 X55.286694 Y51.317666 Z-1.000000 F0.500000
G00 Z5.000000
M05 (Turn spray off)
 
(Change tool to Graffiti)
(Add G00 here to change sprayer if needed)
G00 Z5.000000
G00 X55.286694 Y64.142792
M03 S1(Turn spray on)
 
G01 Z-1.000000 F1.0(Penetrate)
G01 X55.286694 Y71.778143 Z-1.000000 F0.500000
G00 Z5.000000
M05 (Turn spray off)
 
(Change tool to Graffiti)
(Add G00 here to change sprayer if needed)
G00 Z5.000000
G00 X55.786694 Y71.877620
M03 S1(Turn spray on)
 
G01 Z-1.000000 F1.0(Penetrate)
G01 X55.786694 Y64.137512 Z-1.000000 F0.500000
G00 Z5.000000
M05 (Turn spray off)
 
(Change tool to Graffiti)
(Add G00 here to change sprayer if needed)
G00 Z5.000000
G00 X55.786694 Y51.322947
M03 S1(Turn spray on)
 
G01 Z-1.000000 F1.0(Penetrate)
G01 X55.786694 Y38.068648 Z-1.000000 F0.500000
G00 Z5.000000
M05 (Turn spray off)
 
(Change tool to Graffiti)
(Add G00 here to change sprayer if needed)
G00 Z5.000000
G00 X56.286694 Y38.436109
M03 S1(Turn spray on)
 
G01 Z-1.000000 F1.0(Penetrate)
G01 X56.286694 Y51.362533 Z-1.000000 F0.500000
G00 Z5.000000
M05 (Turn spray off)
 
(Change tool to Graffiti)
(Add G00 here to change sprayer if needed)
G00 Z5.000000
G00 X56.286694 Y64.097926
M03 S1(Turn spray on)
 
G01 Z-1.000000 F1.0(Penetrate)
G01 X56.286694 Y71.977097 Z-1.000000 F0.500000
G00 Z5.000000
M05 (Turn spray off)
 
(Change tool to Graffiti)
(Add G00 here to change sprayer if needed)
G00 Z5.000000
G00 X56.786694 Y72.076573
M03 S1(Turn spray on)
 
G01 Z-1.000000 F1.0(Penetrate)
G01 X56.786694 Y64.023058 Z-1.000000 F0.500000
G00 Z5.000000
M05 (Turn spray off)
 
(Change tool to Graffiti)
(Add G00 here to change sprayer if needed)
G00 Z5.000000
G00 X56.786694 Y51.437401
M03 S1(Turn spray on)
 
G01 Z-1.000000 F1.0(Penetrate)
G01 X56.786694 Y38.803570 Z-1.000000 F0.500000
G00 Z5.000000
M05 (Turn spray off)
 
(Change tool to Graffiti)
(Add G00 here to change sprayer if needed)
G00 Z5.000000
G00 X57.286694 Y39.171031
M03 S1(Turn spray on)
 
G01 Z-1.000000 F1.0(Penetrate)
G01 X57.286694 Y51.549071 Z-1.000000 F0.500000
G00 Z5.000000
M05 (Turn spray off)
 
(Change tool to Graffiti)
(Add G00 here to change sprayer if needed)
G00 Z5.000000
G00 X57.286694 Y63.911388
M03 S1(Turn spray on)
 
G01 Z-1.000000 F1.0(Penetrate)
G01 X57.286694 Y72.176050 Z-1.000000 F0.500000
G00 Z5.000000
M05 (Turn spray off)
 
(Change tool to Graffiti)
(Add G00 here to change sprayer if needed)
G00 Z5.000000
G00 X57.786694 Y72.275527
M03 S1(Turn spray on)
 
G01 Z-1.000000 F1.0(Penetrate)
G01 X57.786694 Y63.760749 Z-1.000000 F0.500000
G00 Z5.000000
M05 (Turn spray off)
 
(Change tool to Graffiti)
(Add G00 here to change sprayer if needed)
G00 Z5.000000
G00 X57.786694 Y51.699710
M03 S1(Turn spray on)
 
G01 Z-1.000000 F1.0(Penetrate)
G01 X57.786694 Y39.538492 Z-1.000000 F0.500000
G00 Z5.000000
M05 (Turn spray off)
 
(Change tool to Graffiti)
(Add G00 here to change sprayer if needed)
G00 Z5.000000
G00 X58.286694 Y39.905954
M03 S1(Turn spray on)
 
G01 Z-1.000000 F1.0(Penetrate)
G01 X58.286694 Y51.892349 Z-1.000000 F0.500000
G00 Z5.000000
M05 (Turn spray off)
 
(Change tool to Graffiti)
(Add G00 here to change sprayer if needed)
G00 Z5.000000
G00 X58.286694 Y63.568110
M03 S1(Turn spray on)
 
G01 Z-1.000000 F1.0(Penetrate)
G01 X58.286694 Y72.375004 Z-1.000000 F0.500000
G00 Z5.000000
M05 (Turn spray off)
 
(Change tool to Graffiti)
(Add G00 here to change sprayer if needed)
G00 Z5.000000
G00 X58.786694 Y72.474481
M03 S1(Turn spray on)
 
G01 Z-1.000000 F1.0(Penetrate)
G01 X58.786694 Y63.329212 Z-1.000000 F0.500000
G00 Z5.000000
M05 (Turn spray off)
 
(Change tool to Graffiti)
(Add G00 here to change sprayer if needed)
G00 Z5.000000
G00 X58.786694 Y52.131246
M03 S1(Turn spray on)
 
G01 Z-1.000000 F1.0(Penetrate)
G01 X58.786694 Y39.708961 Z-1.000000 F0.500000
G00 Z5.000000
M05 (Turn spray off)
 
(Change tool to Graffiti)
(Add G00 here to change sprayer if needed)
G00 Z5.000000
G00 X59.286694 Y39.384401
M03 S1(Turn spray on)
 
G01 Z-1.000000 F1.0(Penetrate)
G01 X59.286694 Y52.422487 Z-1.000000 F0.500000
G00 Z5.000000
M05 (Turn spray off)
 
(Change tool to Graffiti)
(Add G00 here to change sprayer if needed)
G00 Z5.000000
G00 X59.286694 Y63.037972
M03 S1(Turn spray on)
 
G01 Z-1.000000 F1.0(Penetrate)
G01 X59.286694 Y72.573958 Z-1.000000 F0.500000
G00 Z5.000000
M05 (Turn spray off)
 
(Change tool to Graffiti)
(Add G00 here to change sprayer if needed)
G00 Z5.000000
G00 X59.786694 Y72.673434
M03 S1(Turn spray on)
 
G01 Z-1.000000 F1.0(Penetrate)
G01 X59.786694 Y62.685394 Z-1.000000 F0.500000
G00 Z5.000000
M05 (Turn spray off)
 
(Change tool to Graffiti)
(Add G00 here to change sprayer if needed)
G00 Z5.000000
G00 X59.786694 Y52.775065
M03 S1(Turn spray on)
 
G01 Z-1.000000 F1.0(Penetrate)
G01 X59.786694 Y39.059840 Z-1.000000 F0.500000
G00 Z5.000000
M05 (Turn spray off)
 
(Change tool to Graffiti)
(Add G00 here to change sprayer if needed)
G00 Z5.000000
G00 X60.286694 Y38.735280
M03 S1(Turn spray on)
 
G01 Z-1.000000 F1.0(Penetrate)
G01 X60.286694 Y40.709875 Z-1.000000 F0.500000
G00 Z5.000000
M05 (Turn spray off)
 
(Change tool to Graffiti)
(Add G00 here to change sprayer if needed)
G00 Z5.000000
G00 X60.286694 Y41.375957
M03 S1(Turn spray on)
 
G01 Z-1.000000 F1.0(Penetrate)
G01 X60.286694 Y53.203019 Z-1.000000 F0.500000
G00 Z5.000000
M05 (Turn spray off)
 
(Change tool to Graffiti)
(Add G00 here to change sprayer if needed)
G00 Z5.000000
G00 X60.286694 Y62.257439
M03 S1(Turn spray on)
 
G01 Z-1.000000 F1.0(Penetrate)
G01 X60.286694 Y72.772911 Z-1.000000 F0.500000
G00 Z5.000000
M05 (Turn spray off)
 
(Change tool to Graffiti)
(Add G00 here to change sprayer if needed)
G00 Z5.000000
G00 X60.786694 Y72.872388
M03 S1(Turn spray on)
 
G01 Z-1.000000 F1.0(Penetrate)
G01 X60.786694 Y66.322360 Z-1.000000 F0.500000
G00 Z5.000000
M05 (Turn spray off)
 
(Change tool to Graffiti)
(Add G00 here to change sprayer if needed)
G00 Z5.000000
G00 X60.786694 Y65.340397
M03 S1(Turn spray on)
 
G01 Z-1.000000 F1.0(Penetrate)
G01 X60.786694 Y61.730244 Z-1.000000 F0.500000
G00 Z5.000000
M05 (Turn spray off)
 
(Change tool to Graffiti)
(Add G00 here to change sprayer if needed)
G00 Z5.000000
G00 X60.786694 Y53.730215
M03 S1(Turn spray on)
 
G01 Z-1.000000 F1.0(Penetrate)
G01 X60.786694 Y41.743447 Z-1.000000 F0.500000
G00 Z5.000000
M05 (Turn spray off)
 
(Change tool to Graffiti)
(Add G00 here to change sprayer if needed)
G00 Z5.000000
G00 X60.786694 Y39.424340
M03 S1(Turn spray on)
 
G01 Z-1.000000 F1.0(Penetrate)
G01 X60.786694 Y38.410720 Z-1.000000 F0.500000
G00 Z5.000000
M05 (Turn spray off)
 
(Change tool to Graffiti)
(Add G00 here to change sprayer if needed)
G00 Z5.000000
G00 X61.286694 Y38.086160
M03 S1(Turn spray on)
 
G01 Z-1.000000 F1.0(Penetrate)
G01 X61.286694 Y38.138805 Z-1.000000 F0.500000
G00 Z5.000000
M05 (Turn spray off)
 
(Change tool to Graffiti)
(Add G00 here to change sprayer if needed)
G00 Z5.000000
G00 X61.286694 Y42.110938
M03 S1(Turn spray on)
 
G01 Z-1.000000 F1.0(Penetrate)
G01 X61.286694 Y54.403443 Z-1.000000 F0.500000
G00 Z5.000000
M05 (Turn spray off)
 
(Change tool to Graffiti)
(Add G00 here to change sprayer if needed)
G00 Z5.000000
G00 X61.286694 Y61.057015
M03 S1(Turn spray on)
 
G01 Z-1.000000 F1.0(Penetrate)
G01 X61.286694 Y64.786468 Z-1.000000 F0.500000
G00 Z5.000000
M05 (Turn spray off)
 
(Change tool to Graffiti)
(Add G00 here to change sprayer if needed)
G00 Z5.000000
G00 X61.286694 Y66.858710
M03 S1(Turn spray on)
 
G01 Z-1.000000 F1.0(Penetrate)
G01 X61.286694 Y72.971865 Z-1.000000 F0.500000
G00 Z5.000000
M05 (Turn spray off)
 
(Change tool to Graffiti)
(Add G00 here to change sprayer if needed)
G00 Z5.000000
G00 X61.786694 Y73.071342
M03 S1(Turn spray on)
 
G01 Z-1.000000 F1.0(Penetrate)
G01 X61.786694 Y67.395061 Z-1.000000 F0.500000
G00 Z5.000000
M05 (Turn spray off)
 
(Change tool to Graffiti)
(Add G00 here to change sprayer if needed)
G00 Z5.000000
G00 X61.786694 Y64.232539
M03 S1(Turn spray on)
 
G01 Z-1.000000 F1.0(Penetrate)
G01 X61.786694 Y60.116194 Z-1.000000 F0.500000
G00 Z5.000000
M05 (Turn spray off)
 
(Change tool to Graffiti)
(Add G00 here to change sprayer if needed)
G00 Z5.000000
G00 X61.786694 Y55.344265
M03 S1(Turn spray on)
 
G01 Z-1.000000 F1.0(Penetrate)
G01 X61.786694 Y42.478428 Z-1.000000 F0.500000
G00 Z5.000000
M05 (Turn spray off)
 
(Change tool to Graffiti)
(Add G00 here to change sprayer if needed)
G00 Z5.000000
G00 X62.286694 Y42.845919
M03 S1(Turn spray on)
 
G01 Z-1.000000 F1.0(Penetrate)
G01 X62.286694 Y63.678610 Z-1.000000 F0.500000
G00 Z5.000000
M05 (Turn spray off)
 
(Change tool to Graffiti)
(Add G00 here to change sprayer if needed)
G00 Z5.000000
G00 X62.286694 Y67.931412
M03 S1(Turn spray on)
 
G01 Z-1.000000 F1.0(Penetrate)
G01 X62.286694 Y73.170819 Z-1.000000 F0.500000
G00 Z5.000000
M05 (Turn spray off)
 
(Change tool to Graffiti)
(Add G00 here to change sprayer if needed)
G00 Z5.000000
G00 X62.786694 Y73.270295
M03 S1(Turn spray on)
 
G01 Z-1.000000 F1.0(Penetrate)
G01 X62.786694 Y68.467763 Z-1.000000 F0.500000
G00 Z5.000000
M05 (Turn spray off)
 
(Change tool to Graffiti)
(Add G00 here to change sprayer if needed)
G00 Z5.000000
G00 X62.786694 Y63.124681
M03 S1(Turn spray on)
 
G01 Z-1.000000 F1.0(Penetrate)
G01 X62.786694 Y41.862406 Z-1.000000 F0.500000
G00 Z5.000000
M05 (Turn spray off)
 
(Change tool to Graffiti)
(Add G00 here to change sprayer if needed)
G00 Z5.000000
G00 X63.286694 Y40.629286
M03 S1(Turn spray on)
 
G01 Z-1.000000 F1.0(Penetrate)
G01 X63.286694 Y62.570752 Z-1.000000 F0.500000
G00 Z5.000000
M05 (Turn spray off)
 
(Change tool to Graffiti)
(Add G00 here to change sprayer if needed)
G00 Z5.000000
G00 X63.286694 Y69.004113
M03 S1(Turn spray on)
 
G01 Z-1.000000 F1.0(Penetrate)
G01 X63.286694 Y73.369772 Z-1.000000 F0.500000
G00 Z5.000000
M05 (Turn spray off)
 
(Change tool to Graffiti)
(Add G00 here to change sprayer if needed)
G00 Z5.000000
G00 X63.786694 Y73.469249
M03 S1(Turn spray on)
 
G01 Z-1.000000 F1.0(Penetrate)
G01 X63.786694 Y69.540464 Z-1.000000 F0.500000
G00 Z5.000000
M05 (Turn spray off)
 
(Change tool to Graffiti)
(Add G00 here to change sprayer if needed)
G00 Z5.000000
G00 X63.786694 Y62.016823
M03 S1(Turn spray on)
 
G01 Z-1.000000 F1.0(Penetrate)
G01 X63.786694 Y39.396166 Z-1.000000 F0.500000
G00 Z5.000000
M05 (Turn spray off)
 
(Change tool to Graffiti)
(Add G00 here to change sprayer if needed)
G00 Z5.000000
G00 X64.286694 Y38.163046
M03 S1(Turn spray on)
 
G01 Z-1.000000 F1.0(Penetrate)
G01 X64.286694 Y61.544228 Z-1.000000 F0.500000
G00 Z5.000000
M05 (Turn spray off)
 
(Change tool to Graffiti)
(Add G00 here to change sprayer if needed)
G00 Z5.000000
G00 X64.286694 Y70.076815
M03 S1(Turn spray on)
 
G01 Z-1.000000 F1.0(Penetrate)
G01 X64.286694 Y73.568726 Z-1.000000 F0.500000
G00 Z5.000000
M05 (Turn spray off)
 
(Change tool to Graffiti)
(Add G00 here to change sprayer if needed)
G00 Z5.000000
G00 X64.786694 Y73.668203
M03 S1(Turn spray on)
 
G01 Z-1.000000 F1.0(Penetrate)
G01 X64.786694 Y70.613166 Z-1.000000 F0.500000
G00 Z5.000000
M05 (Turn spray off)
 
(Change tool to Graffiti)
(Add G00 here to change sprayer if needed)
G00 Z5.000000
G00 X64.786694 Y62.294361
M03 S1(Turn spray on)
 
G01 Z-1.000000 F1.0(Penetrate)
G01 X64.786694 Y36.929926 Z-1.000000 F0.500000
G00 Z5.000000
M05 (Turn spray off)
 
(Change tool to Graffiti)
(Add G00 here to change sprayer if needed)
G00 Z5.000000
G00 X65.286694 Y35.696806
M03 S1(Turn spray on)
 
G01 Z-1.000000 F1.0(Penetrate)
G01 X65.286694 Y63.044493 Z-1.000000 F0.500000
G00 Z5.000000
M05 (Turn spray off)
 
(Change tool to Graffiti)
(Add G00 here to change sprayer if needed)
G00 Z5.000000
G00 X65.286694 Y71.149517
M03 S1(Turn spray on)
 
G01 Z-1.000000 F1.0(Penetrate)
G01 X65.286694 Y73.767680 Z-1.000000 F0.500000
G00 Z5.000000
M05 (Turn spray off)
 
(Change tool to Graffiti)
(Add G00 here to change sprayer if needed)
G00 Z5.000000
G00 X65.786694 Y73.867156
M03 S1(Turn spray on)
 
G01 Z-1.000000 F1.0(Penetrate)
G01 X65.786694 Y71.685867 Z-1.000000 F0.500000
G00 Z5.000000
M05 (Turn spray off)
 
(Change tool to Graffiti)
(Add G00 here to change sprayer if needed)
G00 Z5.000000
G00 X65.786694 Y63.794625
M03 S1(Turn spray on)
 
G01 Z-1.000000 F1.0(Penetrate)
G01 X65.786694 Y34.463686 Z-1.000000 F0.500000
G00 Z5.000000
M05 (Turn spray off)
 
(Change tool to Graffiti)
(Add G00 here to change sprayer if needed)
G00 Z5.000000
G00 X66.286694 Y33.230566
M03 S1(Turn spray on)
 
G01 Z-1.000000 F1.0(Penetrate)
G01 X66.286694 Y64.544758 Z-1.000000 F0.500000
G00 Z5.000000
M05 (Turn spray off)
 
(Change tool to Graffiti)
(Add G00 here to change sprayer if needed)
G00 Z5.000000
G00 X66.286694 Y72.222218
M03 S1(Turn spray on)
 
G01 Z-1.000000 F1.0(Penetrate)
G01 X66.286694 Y73.966633 Z-1.000000 F0.500000
G00 Z5.000000
M05 (Turn spray off)
 
(Change tool to Graffiti)
(Add G00 here to change sprayer if needed)
G00 Z5.000000
G00 X66.786694 Y74.066110
M03 S1(Turn spray on)
 
G01 Z-1.000000 F1.0(Penetrate)
G01 X66.786694 Y72.758569 Z-1.000000 F0.500000
G00 Z5.000000
M05 (Turn spray off)
 
(Change tool to Graffiti)
(Add G00 here to change sprayer if needed)
G00 Z5.000000
G00 X66.786694 Y65.294890
M03 S1(Turn spray on)
 
G01 Z-1.000000 F1.0(Penetrate)
G01 X66.786694 Y34.953074 Z-1.000000 F0.500000
G00 Z5.000000
M05 (Turn spray off)
 
(Change tool to Graffiti)
(Add G00 here to change sprayer if needed)
G00 Z5.000000
G00 X67.286694 Y37.006484
M03 S1(Turn spray on)
 
G01 Z-1.000000 F1.0(Penetrate)
G01 X67.286694 Y66.045022 Z-1.000000 F0.500000
G00 Z5.000000
M05 (Turn spray off)
 
(Change tool to Graffiti)
(Add G00 here to change sprayer if needed)
G00 Z5.000000
G00 X67.286694 Y73.294920
M03 S1(Turn spray on)
 
G01 Z-1.000000 F1.0(Penetrate)
G01 X67.286694 Y74.165587 Z-1.000000 F0.500000
G00 Z5.000000
M05 (Turn spray off)
 
(Change tool to Graffiti)
(Add G00 here to change sprayer if needed)
G00 Z5.000000
G00 X67.786694 Y74.265064
M03 S1(Turn spray on)
 
G01 Z-1.000000 F1.0(Penetrate)
G01 X67.786694 Y73.831270 Z-1.000000 F0.500000
G00 Z5.000000
M05 (Turn spray off)
 
(Change tool to Graffiti)
(Add G00 here to change sprayer if needed)
G00 Z5.000000
G00 X67.786694 Y66.795155
M03 S1(Turn spray on)
 
G01 Z-1.000000 F1.0(Penetrate)
G01 X67.786694 Y39.059894 Z-1.000000 F0.500000
G00 Z5.000000
M05 (Turn spray off)
 
(Change tool to Graffiti)
(Add G00 here to change sprayer if needed)
G00 Z5.000000
G00 X68.286694 Y41.113304
M03 S1(Turn spray on)
 
G01 Z-1.000000 F1.0(Penetrate)
G01 X68.286694 Y67.545287 Z-1.000000 F0.500000
G00 Z5.000000
M05 (Turn spray off)
 
(Change tool to Graffiti)
(Add G00 here to change sprayer if needed)
G00 Z5.000000
G00 X68.786694 Y68.295419
M03 S1(Turn spray on)
 
G01 Z-1.000000 F1.0(Penetrate)
G01 X68.786694 Y43.166714 Z-1.000000 F0.500000
G00 Z5.000000
M05 (Turn spray off)
 
(Change tool to Graffiti)
(Add G00 here to change sprayer if needed)
G00 Z5.000000
G00 X69.286694 Y43.140362
M03 S1(Turn spray on)
 
G01 Z-1.000000 F1.0(Penetrate)
G01 X69.286694 Y69.045552 Z-1.000000 F0.500000
G00 Z5.000000
M05 (Turn spray off)
 
(Change tool to Graffiti)
(Add G00 here to change sprayer if needed)
G00 Z5.000000
G00 X69.786694 Y69.795684
M03 S1(Turn spray on)
 
G01 Z-1.000000 F1.0(Penetrate)
G01 X69.786694 Y42.875299 Z-1.000000 F0.500000
G00 Z5.000000
M05 (Turn spray off)
 
(Change tool to Graffiti)
(Add G00 here to change sprayer if needed)
G00 Z5.000000
G00 X70.286694 Y42.610237
M03 S1(Turn spray on)
 
G01 Z-1.000000 F1.0(Penetrate)
G01 X70.286694 Y65.653068 Z-1.000000 F0.500000
G00 Z5.000000
M05 (Turn spray off)
 
(Change tool to Graffiti)
(Add G00 here to change sprayer if needed)
G00 Z5.000000
G00 X70.786694 Y59.812662
M03 S1(Turn spray on)
 
G01 Z-1.000000 F1.0(Penetrate)
G01 X70.786694 Y42.345175 Z-1.000000 F0.500000
G00 Z5.000000
M05 (Turn spray off)
 
(Change tool to Graffiti)
(Add G00 here to change sprayer if needed)
G00 Z5.000000
G00 X71.286694 Y42.080113
M03 S1(Turn spray on)
 
G01 Z-1.000000 F1.0(Penetrate)
G01 X71.286694 Y59.959015 Z-1.000000 F0.500000
G00 Z5.000000
M05 (Turn spray off)
 
(Change tool to Graffiti)
(Add G00 here to change sprayer if needed)
G00 Z5.000000
G00 X71.786694 Y60.105368
M03 S1(Turn spray on)
 
G01 Z-1.000000 F1.0(Penetrate)
G01 X71.786694 Y41.815051 Z-1.000000 F0.500000
G00 Z5.000000
M05 (Turn spray off)
 
(Change tool to Graffiti)
(Add G00 here to change sprayer if needed)
G00 Z5.000000
G00 X72.286694 Y41.549989
M03 S1(Turn spray on)
 
G01 Z-1.000000 F1.0(Penetrate)
G01 X72.286694 Y60.251722 Z-1.000000 F0.500000
G00 Z5.000000
M05 (Turn spray off)
 
(Change tool to Graffiti)
(Add G00 here to change sprayer if needed)
G00 Z5.000000
G00 X72.786694 Y60.398075
M03 S1(Turn spray on)
 
G01 Z-1.000000 F1.0(Penetrate)
G01 X72.786694 Y41.284927 Z-1.000000 F0.500000
G00 Z5.000000
M05 (Turn spray off)
 
(Change tool to Graffiti)
(Add G00 here to change sprayer if needed)
G00 Z5.000000
G00 X73.286694 Y41.019864
M03 S1(Turn spray on)
 
G01 Z-1.000000 F1.0(Penetrate)
G01 X73.286694 Y60.544428 Z-1.000000 F0.500000
G00 Z5.000000
M05 (Turn spray off)
 
(Change tool to Graffiti)
(Add G00 here to change sprayer if needed)
G00 Z5.000000
G00 X73.786694 Y60.690782
M03 S1(Turn spray on)
 
G01 Z-1.000000 F1.0(Penetrate)
G01 X73.786694 Y47.965910 Z-1.000000 F0.500000
G00 Z5.000000
M05 (Turn spray off)
 
(Change tool to Graffiti)
(Add G00 here to change sprayer if needed)
G00 Z5.000000
G00 X73.786694 Y47.307345
M03 S1(Turn spray on)
 
G01 Z-1.000000 F1.0(Penetrate)
G01 X73.786694 Y40.754802 Z-1.000000 F0.500000
G00 Z5.000000
M05 (Turn spray off)
 
(Change tool to Graffiti)
(Add G00 here to change sprayer if needed)
G00 Z5.000000
G00 X74.286694 Y40.489740
M03 S1(Turn spray on)
 
G01 Z-1.000000 F1.0(Penetrate)
G01 X74.286694 Y46.296319 Z-1.000000 F0.500000
G00 Z5.000000
M05 (Turn spray off)
 
(Change tool to Graffiti)
(Add G00 here to change sprayer if needed)
G00 Z5.000000
G00 X74.286694 Y48.072833
M03 S1(Turn spray on)
 
G01 Z-1.000000 F1.0(Penetrate)
G01 X74.286694 Y54.299992 Z-1.000000 F0.500000
G00 Z5.000000
M05 (Turn spray off)
 
(Change tool to Graffiti)
(Add G00 here to change sprayer if needed)
G00 Z5.000000
G00 X74.286694 Y54.537145
M03 S1(Turn spray on)
 
G01 Z-1.000000 F1.0(Penetrate)
G01 X74.286694 Y60.837135 Z-1.000000 F0.500000
G00 Z5.000000
M05 (Turn spray off)
 
(Change tool to Graffiti)
(Add G00 here to change sprayer if needed)
G00 Z5.000000
G00 X74.786694 Y60.983488
M03 S1(Turn spray on)
 
G01 Z-1.000000 F1.0(Penetrate)
G01 X74.786694 Y55.178736 Z-1.000000 F0.500000
G00 Z5.000000
M05 (Turn spray off)
 
(Change tool to Graffiti)
(Add G00 here to change sprayer if needed)
G00 Z5.000000
G00 X74.786694 Y54.080658
M03 S1(Turn spray on)
 
G01 Z-1.000000 F1.0(Penetrate)
G01 X74.786694 Y48.179756 Z-1.000000 F0.500000
G00 Z5.000000
M05 (Turn spray off)
 
(Change tool to Graffiti)
(Add G00 here to change sprayer if needed)
G00 Z5.000000
G00 X74.786694 Y45.285293
M03 S1(Turn spray on)
 
G01 Z-1.000000 F1.0(Penetrate)
G01 X74.786694 Y40.224678 Z-1.000000 F0.500000
G00 Z5.000000
M05 (Turn spray off)
 
(Change tool to Graffiti)
(Add G00 here to change sprayer if needed)
G00 Z5.000000
G00 X75.286694 Y39.959616
M03 S1(Turn spray on)
 
G01 Z-1.000000 F1.0(Penetrate)
G01 X75.286694 Y44.274266 Z-1.000000 F0.500000
G00 Z5.000000
M05 (Turn spray off)
 
(Change tool to Graffiti)
(Add G00 here to change sprayer if needed)
G00 Z5.000000
G00 X75.286694 Y48.286679
M03 S1(Turn spray on)
 
G01 Z-1.000000 F1.0(Penetrate)
G01 X75.286694 Y53.861324 Z-1.000000 F0.500000
G00 Z5.000000
M05 (Turn spray off)
 
(Change tool to Graffiti)
(Add G00 here to change sprayer if needed)
G00 Z5.000000
G00 X75.286694 Y55.820326
M03 S1(Turn spray on)
 
G01 Z-1.000000 F1.0(Penetrate)
G01 X75.286694 Y61.129841 Z-1.000000 F0.500000
G00 Z5.000000
M05 (Turn spray off)
 
(Change tool to Graffiti)
(Add G00 here to change sprayer if needed)
G00 Z5.000000
G00 X75.786694 Y61.276195
M03 S1(Turn spray on)
 
G01 Z-1.000000 F1.0(Penetrate)
G01 X75.786694 Y56.461917 Z-1.000000 F0.500000
G00 Z5.000000
M05 (Turn spray off)
 
(Change tool to Graffiti)
(Add G00 here to change sprayer if needed)
G00 Z5.000000
G00 X75.786694 Y53.641990
M03 S1(Turn spray on)
 
G01 Z-1.000000 F1.0(Penetrate)
G01 X75.786694 Y48.393602 Z-1.000000 F0.500000
G00 Z5.000000
M05 (Turn spray off)
 
(Change tool to Graffiti)
(Add G00 here to change sprayer if needed)
G00 Z5.000000
G00 X75.786694 Y43.263240
M03 S1(Turn spray on)
 
G01 Z-1.000000 F1.0(Penetrate)
G01 X75.786694 Y39.694554 Z-1.000000 F0.500000
G00 Z5.000000
M05 (Turn spray off)
 
(Change tool to Graffiti)
(Add G00 here to change sprayer if needed)
G00 Z5.000000
G00 X76.286694 Y39.429491
M03 S1(Turn spray on)
 
G01 Z-1.000000 F1.0(Penetrate)
G01 X76.286694 Y42.252214 Z-1.000000 F0.500000
G00 Z5.000000
M05 (Turn spray off)
 
(Change tool to Graffiti)
(Add G00 here to change sprayer if needed)
G00 Z5.000000
G00 X76.286694 Y48.500526
M03 S1(Turn spray on)
 
G01 Z-1.000000 F1.0(Penetrate)
G01 X76.286694 Y53.422656 Z-1.000000 F0.500000
G00 Z5.000000
M05 (Turn spray off)
 
(Change tool to Graffiti)
(Add G00 here to change sprayer if needed)
G00 Z5.000000
G00 X76.286694 Y57.103507
M03 S1(Turn spray on)
 
G01 Z-1.000000 F1.0(Penetrate)
G01 X76.286694 Y61.422548 Z-1.000000 F0.500000
G00 Z5.000000
M05 (Turn spray off)
 
(Change tool to Graffiti)
(Add G00 here to change sprayer if needed)
G00 Z5.000000
G00 X76.786694 Y61.568901
M03 S1(Turn spray on)
 
G01 Z-1.000000 F1.0(Penetrate)
G01 X76.786694 Y57.745098 Z-1.000000 F0.500000
G00 Z5.000000
M05 (Turn spray off)
 
(Change tool to Graffiti)
(Add G00 here to change sprayer if needed)
G00 Z5.000000
G00 X76.786694 Y53.203322
M03 S1(Turn spray on)
 
G01 Z-1.000000 F1.0(Penetrate)
G01 X76.786694 Y48.607449 Z-1.000000 F0.500000
G00 Z5.000000
M05 (Turn spray off)
 
(Change tool to Graffiti)
(Add G00 here to change sprayer if needed)
G00 Z5.000000
G00 X76.786694 Y41.241188
M03 S1(Turn spray on)
 
G01 Z-1.000000 F1.0(Penetrate)
G01 X76.786694 Y39.164429 Z-1.000000 F0.500000
G00 Z5.000000
M05 (Turn spray off)
 
(Change tool to Graffiti)
(Add G00 here to change sprayer if needed)
G00 Z5.000000
G00 X77.286694 Y38.899367
M03 S1(Turn spray on)
 
G01 Z-1.000000 F1.0(Penetrate)
G01 X77.286694 Y40.230162 Z-1.000000 F0.500000
G00 Z5.000000
M05 (Turn spray off)
 
(Change tool to Graffiti)
(Add G00 here to change sprayer if needed)
G00 Z5.000000
G00 X77.286694 Y48.714372
M03 S1(Turn spray on)
 
G01 Z-1.000000 F1.0(Penetrate)
G01 X77.286694 Y52.983988 Z-1.000000 F0.500000
G00 Z5.000000
M05 (Turn spray off)
 
(Change tool to Graffiti)
(Add G00 here to change sprayer if needed)
G00 Z5.000000
G00 X77.286694 Y58.386688
M03 S1(Turn spray on)
 
G01 Z-1.000000 F1.0(Penetrate)
G01 X77.286694 Y61.715255 Z-1.000000 F0.500000
G00 Z5.000000
M05 (Turn spray off)
 
(Change tool to Graffiti)
(Add G00 here to change sprayer if needed)
G00 Z5.000000
G00 X77.786694 Y61.861608
M03 S1(Turn spray on)
 
G01 Z-1.000000 F1.0(Penetrate)
G01 X77.786694 Y59.028279 Z-1.000000 F0.500000
G00 Z5.000000
M05 (Turn spray off)
 
(Change tool to Graffiti)
(Add G00 here to change sprayer if needed)
G00 Z5.000000
G00 X77.786694 Y52.764654
M03 S1(Turn spray on)
 
G01 Z-1.000000 F1.0(Penetrate)
G01 X77.786694 Y48.821295 Z-1.000000 F0.500000
G00 Z5.000000
M05 (Turn spray off)
 
(Change tool to Graffiti)
(Add G00 here to change sprayer if needed)
G00 Z5.000000
G00 X77.786694 Y39.219136
M03 S1(Turn spray on)
 
G01 Z-1.000000 F1.0(Penetrate)
G01 X77.786694 Y38.634305 Z-1.000000 F0.500000
G00 Z5.000000
M05 (Turn spray off)
 
(Change tool to Graffiti)
(Add G00 here to change sprayer if needed)
G00 Z5.000000
G00 X78.286694 Y48.928218
M03 S1(Turn spray on)
 
G01 Z-1.000000 F1.0(Penetrate)
G01 X78.286694 Y52.545320 Z-1.000000 F0.500000
G00 Z5.000000
M05 (Turn spray off)
 
(Change tool to Graffiti)
(Add G00 here to change sprayer if needed)
G00 Z5.000000
G00 X78.286694 Y59.669869
M03 S1(Turn spray on)
 
G01 Z-1.000000 F1.0(Penetrate)
G01 X78.286694 Y62.007961 Z-1.000000 F0.500000
G00 Z5.000000
M05 (Turn spray off)
 
(Change tool to Graffiti)
(Add G00 here to change sprayer if needed)
G00 Z5.000000
G00 X78.786694 Y62.154314
M03 S1(Turn spray on)
 
G01 Z-1.000000 F1.0(Penetrate)
G01 X78.786694 Y60.311460 Z-1.000000 F0.500000
G00 Z5.000000
M05 (Turn spray off)
 
(Change tool to Graffiti)
(Add G00 here to change sprayer if needed)
G00 Z5.000000
G00 X78.786694 Y52.325986
M03 S1(Turn spray on)
 
G01 Z-1.000000 F1.0(Penetrate)
G01 X78.786694 Y49.035141 Z-1.000000 F0.500000
G00 Z5.000000
M05 (Turn spray off)
 
(Change tool to Graffiti)
(Add G00 here to change sprayer if needed)
G00 Z5.000000
G00 X79.286694 Y49.142064
M03 S1(Turn spray on)
 
G01 Z-1.000000 F1.0(Penetrate)
G01 X79.286694 Y52.106652 Z-1.000000 F0.500000
G00 Z5.000000
M05 (Turn spray off)
 
(Change tool to Graffiti)
(Add G00 here to change sprayer if needed)
G00 Z5.000000
G00 X79.286694 Y60.953050
M03 S1(Turn spray on)
 
G01 Z-1.000000 F1.0(Penetrate)
G01 X79.286694 Y62.300668 Z-1.000000 F0.500000
G00 Z5.000000
M05 (Turn spray off)
 
(Change tool to Graffiti)
(Add G00 here to change sprayer if needed)
G00 Z5.000000
G00 X79.786694 Y62.447021
M03 S1(Turn spray on)
 
G01 Z-1.000000 F1.0(Penetrate)
G01 X79.786694 Y61.594641 Z-1.000000 F0.500000
G00 Z5.000000
M05 (Turn spray off)
 
(Change tool to Graffiti)
(Add G00 here to change sprayer if needed)
G00 Z5.000000
G00 X79.786694 Y51.887318
M03 S1(Turn spray on)
 
G01 Z-1.000000 F1.0(Penetrate)
G01 X79.786694 Y49.248988 Z-1.000000 F0.500000
G00 Z5.000000
M05 (Turn spray off)
 
(Change tool to Graffiti)
(Add G00 here to change sprayer if needed)
G00 Z5.000000
G00 X80.286694 Y49.355911
M03 S1(Turn spray on)
 
G01 Z-1.000000 F1.0(Penetrate)
G01 X80.286694 Y51.667984 Z-1.000000 F0.500000
G00 Z5.000000
M05 (Turn spray off)
 
(Change tool to Graffiti)
(Add G00 here to change sprayer if needed)
G00 Z5.000000
G00 X80.286694 Y62.236232
M03 S1(Turn spray on)
 
G01 Z-1.000000 F1.0(Penetrate)
G01 X80.286694 Y62.593374 Z-1.000000 F0.500000
G00 Z5.000000
M05 (Turn spray off)
 
(Change tool to Graffiti)
(Add G00 here to change sprayer if needed)
G00 Z5.000000
G00 X80.786694 Y51.448650
M03 S1(Turn spray on)
 
G01 Z-1.000000 F1.0(Penetrate)
G01 X80.786694 Y49.462834 Z-1.000000 F0.500000
G00 Z5.000000
M05 (Turn spray off)
 
(Change tool to Graffiti)
(Add G00 here to change sprayer if needed)
G00 Z5.000000
G00 X81.286694 Y49.569757
M03 S1(Turn spray on)
 
G01 Z-1.000000 F1.0(Penetrate)
G01 X81.286694 Y51.229316 Z-1.000000 F0.500000
G00 Z5.000000
M05 (Turn spray off)
 
(Change tool to Graffiti)
(Add G00 here to change sprayer if needed)
G00 Z5.000000
G00 X81.786694 Y51.009982
M03 S1(Turn spray on)
 
G01 Z-1.000000 F1.0(Penetrate)
G01 X81.786694 Y49.676680 Z-1.000000 F0.500000
G00 Z5.000000
M05 (Turn spray off)
 
(Change tool to Graffiti)
(Add G00 here to change sprayer if needed)
G00 Z5.000000
G00 X82.286694 Y49.783603
M03 S1(Turn spray on)
 
G01 Z-1.000000 F1.0(Penetrate)
G01 X82.286694 Y50.790648 Z-1.000000 F0.500000
G00 Z5.000000
M05 (Turn spray off)
 
(Change tool to Graffiti)
(Add G00 here to change sprayer if needed)
G00 Z5.000000
G00 X82.786694 Y50.571314
M03 S1(Turn spray on)
 
G01 Z-1.000000 F1.0(Penetrate)
G01 X82.786694 Y49.890526 Z-1.000000 F0.500000
G00 Z5.000000
M05 (Turn spray off)
 
(Change tool to Graffiti)
(Add G00 here to change sprayer if needed)
G00 Z5.000000
G00 X83.286694 Y49.997450
M03 S1(Turn spray on)
 
G01 Z-1.000000 F1.0(Penetrate)
G01 X83.286694 Y50.351980 Z-1.000000 F0.500000
G00 Z5.000000
M05 (Turn spray off)
 
(Change tool to Graffiti)
(Add G00 here to change sprayer if needed)
G00 Z5.000000
G00 X83.786694 Y50.132646
M03 S1(Turn spray on)
 
G01 Z-1.000000 F1.0(Penetrate)
G01 X83.786694 Y50.104373 Z-1.000000 F0.500000
G00 Z5.000000
M05 (Turn spray off)
 
(End cutting path id: path14427)


(Footer)
M5
G00 X0.0000 Y0.0000
M2
(Using default footer. To add your own footer create file "footer" in the output dir.)
(end)
%