; generated by Slic3r 1.3.0 on 2019-03-11 at 15:32:46

; external perimeters extrusion width = 0.55mm (1.59mm^3/s)
; perimeters extrusion width = 0.70mm (4.07mm^3/s)
; infill extrusion width = 0.62mm (4.83mm^3/s)
; solid infill extrusion width = 0.70mm (1.36mm^3/s)
; top infill extrusion width = 0.70mm (1.02mm^3/s)

M107
M104 S205 ; set temperature
G28 ; home all axes
G1 Z5 F5000 ; lift nozzle

; Filament gcode

M109 S205 ; set temperature and wait for it to be reached
G21 ; set units to millimeters
G90 ; use absolute coordinates
M82 ; use absolute distances for extrusion
G92 E0
G1 Z0.100 F7800.000
G1 X26.004 Y21.429 F7800.000
G1 F1800
G1 X26.644 Y20.715 E0.02181
G1 X31.396 Y16.173 E0.17125
G1 X32.120 Y15.579 E0.19253
G1 X37.497 Y11.812 E0.34177
G1 X38.281 Y11.345 E0.36252
G1 X44.148 Y8.414 E0.51160
G1 X45.306 Y7.974 E0.53975
G1 X45.470 Y7.930 E0.54362
G1 X47.429 Y7.730 E0.58837
G1 X47.619 Y7.741 E0.59270
G1 X49.070 Y8.002 E0.62622
G1 X49.296 Y8.071 E0.63159
G1 X50.170 Y8.414 E0.65294
G1 X51.005 Y8.856 E0.67442
G1 X51.304 Y9.041 E0.68242
G1 X51.690 Y9.301 E0.69298
G1 X52.282 Y9.745 E0.70980
G1 X53.122 Y10.461 E0.73489
G1 X54.377 Y11.637 E0.77399
G1 X54.831 Y12.089 E0.78856
G1 X55.265 Y12.577 E0.80340
G1 X80.881 Y45.467 E1.75108
G1 X81.214 Y45.937 E1.76418
G1 X81.760 Y46.945 E1.79023
G1 X84.414 Y53.157 E1.94379
G1 X84.697 Y53.967 E1.96331
G1 X84.924 Y55.159 E1.99088
G1 X85.527 Y61.853 E2.14367
G1 X85.553 Y62.502 E2.15844
G1 X85.419 Y63.823 E2.18862
G1 X83.936 Y70.776 E2.35024
G1 X83.400 Y72.146 E2.38368
G1 X80.126 Y78.243 E2.54100
G1 X79.203 Y79.492 E2.57630
G1 X74.517 Y84.395 E2.73048
G1 X73.279 Y85.394 E2.76665
G1 X67.514 Y88.927 E2.92035
G1 X66.125 Y89.557 E2.95503
G1 X59.689 Y91.564 E3.10828
G1 X58.250 Y91.832 E3.14155
G1 X51.540 Y92.268 E3.29440
G1 X50.134 Y92.198 E3.32640
G1 X43.517 Y91.107 E3.47885
G1 X42.214 Y90.742 E3.50962
G1 X36.008 Y88.242 E3.66172
G1 X34.926 Y87.676 E3.68946
G1 X29.323 Y83.886 E3.84324
G1 X28.519 Y83.238 E3.86671
G1 X23.708 Y78.300 E4.02343
G1 X23.145 Y77.631 E4.04330
G1 X22.857 Y77.218 E4.05476
G1 X19.337 Y71.759 E4.20242
G1 X18.995 Y71.158 E4.21813
G1 X18.725 Y70.570 E4.23284
G1 X16.314 Y64.553 E4.38019
G1 X16.096 Y63.914 E4.39556
G1 X15.943 Y63.305 E4.40983
G1 X14.687 Y56.959 E4.55689
G1 X14.611 Y56.495 E4.56756
G1 X14.547 Y55.697 E4.58577
G1 X14.448 Y48.946 E4.73926
G1 X14.526 Y48.006 E4.76069
G1 X15.574 Y41.482 E4.91090
G1 X15.826 Y40.470 E4.93460
G1 X17.953 Y34.224 E5.08459
G1 X18.357 Y33.294 E5.10765
G1 X21.473 Y27.488 E5.25744
G1 X22.008 Y26.658 E5.27988
G1 X25.959 Y21.489 E5.42778
G92 E0
G1 X31.051 Y25.172 F7800.000
G1 F1800
G1 X30.910 Y25.313 E0.00456
G1 X30.838 Y25.426 E0.00759
G1 X30.796 Y25.588 E0.01141
G1 X30.794 Y25.682 E0.01356
G1 X31.457 Y25.019 E0.03492
G1 X31.717 Y25.012 E0.04083
G1 X30.804 Y25.925 E0.07020
G1 X30.836 Y26.146 E0.07529
G1 X31.953 Y25.029 E0.11124
G1 X32.178 Y25.056 E0.11641
G1 X30.883 Y26.352 E0.15812
G1 X30.940 Y26.548 E0.16277
G1 X32.386 Y25.101 E0.20936
G1 X32.593 Y25.147 E0.21418
G1 X31.003 Y26.737 E0.26539
G1 X31.067 Y26.927 E0.26994
G1 X32.800 Y25.193 E0.32575
G1 X33.007 Y25.239 E0.33058
G1 X31.130 Y27.116 E0.39101
G1 X31.200 Y27.300 E0.39548
G1 X33.199 Y25.300 E0.45986
G1 X33.391 Y25.361 E0.46444
G1 X31.277 Y27.476 E0.53253
G1 X31.353 Y27.652 E0.53690
G1 X33.583 Y25.422 E0.60869
G1 X33.775 Y25.483 E0.61328
G1 X31.430 Y27.828 E0.68878
G1 X31.507 Y28.004 E0.69315
G1 X33.967 Y25.544 E0.77235
G1 X34.159 Y25.605 E0.77694
G1 X31.584 Y28.180 E0.85985
G1 X31.662 Y28.355 E0.86421
G1 X34.351 Y25.666 E0.95081
G1 X34.543 Y25.727 E0.95539
G1 X31.741 Y28.529 E1.04563
G1 X31.819 Y28.703 E1.04998
G1 X34.740 Y25.783 E1.14403
G1 X34.940 Y25.835 E1.14875
G1 X31.894 Y28.882 E1.24686
G1 X31.966 Y29.063 E1.25129
G1 X35.149 Y25.879 E1.35381
G1 X35.377 Y25.904 E1.35903
G1 X32.030 Y29.251 E1.46683
G1 X32.082 Y29.452 E1.47155
G1 X35.637 Y25.897 E1.58601
G1 X35.762 Y25.884 E1.58888
G1 X36.001 Y25.784 E1.59477
G1 X36.061 Y25.726 E1.59667
G1 X32.120 Y29.667 E1.72358
G1 X32.122 Y29.918 F7800.000
G1 F1800
G1 X40.012 Y22.028 E1.97766
G1 X39.811 Y21.976 E1.98239
G1 X36.045 Y25.742 E2.10365
G1 X36.151 Y25.512 E2.10942
G1 X36.172 Y25.362 E2.11286
G1 X39.623 Y21.911 E2.22400
G1 X39.441 Y21.840 E2.22845
G1 X36.183 Y25.098 E2.33336
G1 X36.164 Y24.864 E2.33870
G1 X39.268 Y21.760 E2.43866
G1 X39.096 Y21.679 E2.44299
G1 X36.128 Y24.648 E2.53859
G1 X36.081 Y24.442 E2.54340
G1 X38.927 Y21.595 E2.63506
G1 X38.758 Y21.512 E2.63936
G1 X36.030 Y24.239 E2.72718
G1 X35.976 Y24.040 E2.73187
G1 X38.589 Y21.428 E2.81598
G1 X38.419 Y21.344 E2.82028
G1 X35.921 Y23.842 E2.90071
G1 X35.867 Y23.644 E2.90539
G1 X38.250 Y21.261 E2.98213
G1 X38.081 Y21.177 E2.98643
G1 X35.814 Y23.444 E3.05941
G1 X35.762 Y23.243 E3.06412
G1 X37.911 Y21.094 E3.13334
G1 X37.742 Y21.010 E3.13764
G1 X35.709 Y23.043 E3.20311
G1 X35.656 Y22.843 E3.20782
G1 X37.563 Y20.936 E3.26922
G1 X37.381 Y20.865 E3.27367
G1 X35.610 Y22.636 E3.33069
G1 X35.573 Y22.421 E3.33567
G1 X37.199 Y20.794 E3.38803
G1 X37.017 Y20.724 E3.39248
G1 X35.535 Y22.205 E3.44019
G1 X35.498 Y21.990 E3.44517
G1 X36.827 Y20.661 E3.48797
G1 X36.629 Y20.606 E3.49265
G1 X35.472 Y21.762 E3.52989
G1 X35.457 Y21.525 E3.53531
G1 X36.417 Y20.565 E3.56620
G1 X36.186 Y20.543 E3.57148
G1 X35.463 Y21.266 E3.59475
G1 X35.501 Y21.042 E3.59991
G1 X35.548 Y20.928 E3.60272
G1 X35.892 Y20.584 E3.61379
G92 E0
G1 X38.759 Y19.323 F7800.000
G1 X40.821 Y21.725 F7800.000
G1 F1800
G1 X44.205 Y18.341 E0.10896
G1 X44.055 Y18.237 E0.11310
G1 X40.901 Y21.392 E0.21467
G1 X40.920 Y21.120 E0.22087
G1 X43.906 Y18.134 E0.31703
G1 X43.757 Y18.030 E0.32117
G1 X40.916 Y20.871 E0.41266
G1 X40.898 Y20.636 E0.41802
G1 X43.608 Y17.926 E0.50528
G1 X43.458 Y17.823 E0.50942
G1 X40.875 Y20.407 E0.59262
G1 X40.849 Y20.179 E0.59783
G1 X43.309 Y17.719 E0.67704
G1 X43.160 Y17.615 E0.68118
G1 X40.824 Y19.952 E0.75641
G1 X40.798 Y19.724 E0.76162
G1 X43.011 Y17.512 E0.83287
G1 X42.852 Y17.417 E0.83707
G1 X40.773 Y19.497 E0.90403
G1 X40.747 Y19.269 E0.90925
G1 X42.691 Y17.326 E0.97184
G1 X42.530 Y17.234 E0.97606
G1 X40.722 Y19.042 E1.03427
G1 X40.709 Y18.802 E1.03975
G1 X42.368 Y17.143 E1.09318
G1 X42.202 Y17.056 E1.09745
G1 X40.702 Y18.556 E1.14576
G1 X40.695 Y18.310 E1.15137
G1 X42.027 Y16.978 E1.19425
G1 X41.843 Y16.909 E1.19871
G1 X40.696 Y18.056 E1.23566
G1 X40.714 Y17.785 E1.24186
G1 X41.650 Y16.849 E1.27199
G1 X41.427 Y16.819 E1.27711
G1 X40.766 Y17.480 E1.29840
G1 X40.833 Y17.264 E1.30356
G1 X40.920 Y17.113 E1.30754
G1 X41.022 Y17.018 E1.31070
G1 X41.147 Y16.968 E1.31378
G1 X41.288 Y16.958 E1.31700
G92 E0
G1 X41.714 Y17.986 F7800.000
G1 X46.858 Y18.963 F7800.000
G1 X46.109 Y18.460 F7800.000
G1 F1800
G1 X49.262 Y15.307 E0.10153
G1 X49.130 Y15.186 E0.10560
G1 X46.185 Y18.131 E0.20045
G1 X46.221 Y17.842 E0.20708
G1 X48.999 Y15.064 E0.29653
G1 X48.868 Y14.942 E0.30061
G1 X46.240 Y17.570 E0.38522
G1 X46.250 Y17.308 E0.39119
G1 X48.737 Y14.820 E0.47128
G1 X48.597 Y14.708 E0.47538
G1 X46.259 Y17.045 E0.55065
G1 X46.268 Y16.783 E0.55662
G1 X48.454 Y14.597 E0.62701
G1 X48.312 Y14.487 E0.63111
G1 X46.278 Y16.521 E0.69661
G1 X46.287 Y16.259 E0.70259
G1 X48.169 Y14.376 E0.76320
G1 X48.023 Y14.269 E0.76732
G1 X46.297 Y15.996 E0.82291
G1 X46.330 Y15.710 E0.82947
G1 X47.867 Y14.173 E0.87898
G1 X47.706 Y14.081 E0.88320
G1 X46.363 Y15.424 E0.92643
G1 X46.400 Y15.134 E0.93310
G1 X47.535 Y13.999 E0.96963
G1 X47.343 Y13.938 E0.97422
G1 X46.469 Y14.812 E1.00237
G1 X46.610 Y14.418 E1.01189
G1 X47.096 Y13.933 E1.02753
G92 E0
G1 X33.344 Y14.439 F7800.000
G1 X28.160 Y16.440 F7800.000
G1 X27.223 Y30.264 F7800.000
G1 F1800
G1 X26.894 Y30.593 E0.01060
G1 X26.867 Y30.653 E0.01208
G1 X26.856 Y30.884 E0.01736
G1 X27.591 Y30.150 E0.04101
G1 X27.876 Y30.117 E0.04755
G1 X26.893 Y31.101 E0.07922
G1 X26.947 Y31.299 E0.08390
G1 X28.137 Y30.109 E0.12223
G1 X28.380 Y30.119 E0.12776
G1 X27.018 Y31.481 E0.17162
G1 X27.093 Y31.660 E0.17603
G1 X28.618 Y30.134 E0.22514
G1 X28.855 Y30.150 E0.23056
G1 X27.179 Y31.826 E0.28454
G1 X27.265 Y31.993 E0.28881
G1 X29.088 Y30.170 E0.34751
G1 X29.307 Y30.203 E0.35256
G1 X27.351 Y32.160 E0.41555
G1 X27.438 Y32.326 E0.41982
G1 X29.527 Y30.237 E0.48710
G1 X29.746 Y30.270 E0.49215
G1 X27.534 Y32.482 E0.56338
G1 X27.634 Y32.636 E0.56754
G1 X29.966 Y30.304 E0.64263
G1 X30.185 Y30.337 E0.64768
G1 X27.733 Y32.789 E0.72664
G1 X27.832 Y32.943 E0.73080
G1 X30.404 Y30.371 E0.81363
G1 X30.624 Y30.404 E0.81868
G1 X27.932 Y33.097 E0.90538
G1 X28.031 Y33.250 E0.90955
G1 X30.850 Y30.431 E1.00032
G1 X31.085 Y30.449 E1.00567
G1 X28.130 Y33.404 E1.10080
G1 X28.230 Y33.557 E1.10497
G1 X31.334 Y30.453 E1.20491
G1 X31.618 Y30.422 E1.21143
G1 X28.329 Y33.711 E1.31735
G1 X28.426 Y33.866 E1.32153
G1 X40.243 Y22.050 E1.70202
G1 X40.332 Y22.055 E1.70406
G1 X40.537 Y22.009 E1.70884
G1 X28.523 Y34.023 E2.09569
G1 X28.612 Y34.187 E2.09994
G1 X44.355 Y18.444 E2.60687
G1 X44.507 Y18.544 E2.61103
G1 X28.695 Y34.356 E3.12019
G1 X28.768 Y34.537 E3.12462
G1 X44.663 Y18.641 E3.63647
G1 X44.825 Y18.733 E3.64069
G1 X28.818 Y34.739 E4.15610
G1 X28.843 Y34.855 E4.15880
G1 X28.835 Y34.975 E4.16155
G1 X34.351 Y29.460 E4.33916
G1 X35.913 Y27.750 E4.39189
G1 X37.546 Y26.172 E4.44361
G1 X38.183 Y25.627 E4.46269
G1 X44.996 Y18.814 E4.68207
G1 X45.175 Y18.888 E4.68648
G1 X39.668 Y24.395 E4.86383
G1 X40.707 Y23.609 E4.89350
G1 X45.381 Y18.935 E5.04400
G1 X45.633 Y18.936 E5.04974
G1 X41.611 Y22.957 E5.17924
G1 X42.328 Y22.494 E5.19867
G1 X49.393 Y15.429 E5.42616
G1 X49.524 Y15.551 E5.43024
G1 X42.993 Y22.081 E5.64052
G1 X43.659 Y21.669 E5.65835
G1 X49.655 Y15.673 E5.85141
G1 X49.784 Y15.796 E5.85549
G1 X44.325 Y21.256 E6.03129
G1 X44.873 Y20.961 E6.04546
G1 X49.914 Y15.919 E6.20780
G1 X50.047 Y16.039 E6.21187
G1 X45.397 Y20.690 E6.36163
G1 X45.921 Y20.419 E6.37506
G1 X50.179 Y16.160 E6.51218
G1 X50.305 Y16.287 E6.51625
G1 X46.445 Y20.147 E6.64055
G1 X46.968 Y19.876 E6.65398
G1 X50.431 Y16.414 E6.76547
G1 X50.441 Y16.425 E6.76582
G1 X50.544 Y16.554 E6.76956
G1 X47.455 Y19.643 E6.86904
G1 X47.916 Y19.435 E6.88056
G1 X50.656 Y16.694 E6.96881
G1 X50.762 Y16.842 E6.97294
G1 X48.363 Y19.241 E7.05018
G1 X48.800 Y19.057 E7.06097
G1 X50.861 Y16.996 E7.12733
G1 X50.960 Y17.150 E7.13150
G1 X49.227 Y18.883 E7.18730
G1 X49.646 Y18.716 E7.19758
G1 X51.058 Y17.304 E7.24306
G1 X51.157 Y17.458 E7.24722
G1 X49.880 Y18.735 E7.28834
G1 X49.972 Y18.897 E7.29257
G1 X51.256 Y17.612 E7.33394
G1 X51.354 Y17.767 E7.33811
G1 X50.063 Y19.058 E7.37970
G1 X50.154 Y19.220 E7.38393
G1 X51.444 Y17.929 E7.42548
G1 X51.535 Y18.092 E7.42972
G1 X50.245 Y19.382 E7.47123
G1 X50.336 Y19.543 E7.47546
G1 X51.625 Y18.255 E7.51694
G1 X51.715 Y18.418 E7.52118
G1 X50.428 Y19.705 E7.56263
G1 X50.519 Y19.867 E7.56685
G1 X51.805 Y18.581 E7.60826
G1 X51.895 Y18.743 E7.61250
G1 X50.610 Y20.028 E7.65388
G1 X50.701 Y20.191 E7.65811
G1 X51.985 Y18.906 E7.69947
G1 X52.075 Y19.069 E7.70371
G1 X50.780 Y20.364 E7.74541
G1 X50.860 Y20.537 E7.74975
G1 X52.166 Y19.232 E7.79180
G1 X52.256 Y19.394 E7.79603
G1 X50.939 Y20.711 E7.83842
G1 X51.019 Y20.884 E7.84276
G1 X52.346 Y19.557 E7.88549
G1 X52.432 Y19.723 E7.88976
G1 X51.098 Y21.057 E7.93271
G1 X51.178 Y21.231 E7.93706
G1 X52.509 Y19.899 E7.97993
G1 X52.586 Y20.075 E7.98430
G1 X51.257 Y21.404 E8.02710
G1 X51.337 Y21.578 E8.03144
G1 X52.663 Y20.251 E8.07415
G1 X52.740 Y20.427 E8.07852
G1 X51.416 Y21.751 E8.12115
G1 X51.492 Y21.929 E8.12554
G1 X52.817 Y20.603 E8.16822
G1 X52.894 Y20.779 E8.17259
G1 X51.554 Y22.120 E8.21576
G1 X51.615 Y22.311 E8.22034
G1 X52.971 Y20.955 E8.26399
G1 X53.048 Y21.131 E8.26836
G1 X51.677 Y22.502 E8.31251
G1 X51.739 Y22.693 E8.31708
G1 X53.125 Y21.307 E8.36172
G1 X53.198 Y21.487 E8.36614
G1 X51.801 Y22.884 E8.41112
G1 X51.863 Y23.075 E8.41570
G1 X53.257 Y21.681 E8.46060
G1 X53.317 Y21.874 E8.46521
G1 X51.924 Y23.266 E8.51005
G1 X51.986 Y23.457 E8.51462
G1 X53.376 Y22.067 E8.55939
G1 X53.436 Y22.260 E8.56399
G1 X52.040 Y23.656 E8.60893
G1 X52.084 Y23.866 E8.61380
G1 X53.496 Y22.454 E8.65927
G1 X53.555 Y22.647 E8.66387
G1 X52.127 Y24.075 E8.70986
G1 X52.171 Y24.285 E8.71473
G1 X53.615 Y22.840 E8.76124
G1 X53.675 Y23.034 E8.76584
G1 X52.214 Y24.494 E8.81288
G1 X52.257 Y24.704 E8.81775
G1 X53.728 Y23.233 E8.86512
G1 X53.771 Y23.443 E8.87000
G1 X52.301 Y24.913 E8.91735
G1 X52.344 Y25.123 E8.92222
G1 X53.814 Y23.653 E8.96955
G1 X53.856 Y23.863 E8.97443
G1 X52.387 Y25.332 E9.02173
G1 X52.422 Y25.550 E9.02675
G1 X53.899 Y24.074 E9.07429
G1 X53.942 Y24.284 E9.07918
G1 X52.451 Y25.775 E9.12719
G1 X52.479 Y26.000 E9.13234
G1 X53.984 Y24.494 E9.18082
G1 X54.027 Y24.705 E9.18570
G1 X52.507 Y26.224 E9.23465
G1 X52.535 Y26.449 E9.23980
G1 X54.069 Y24.915 E9.28921
G1 X54.111 Y25.126 E9.29412
G1 X52.563 Y26.674 E9.34396
G1 X52.591 Y26.899 E9.34912
G1 X54.139 Y25.351 E9.39896
G1 X54.167 Y25.576 E9.40412
G1 X52.619 Y27.124 E9.45395
G1 X52.647 Y27.348 E9.45911
G1 X54.195 Y25.801 E9.50893
G1 X54.223 Y26.026 E9.51410
G1 X52.676 Y27.573 E9.56391
G1 X52.697 Y27.805 E9.56921
G1 X54.250 Y26.251 E9.61923
G1 X54.278 Y26.476 E9.62439
G1 X52.713 Y28.042 E9.67481
G1 X52.729 Y28.279 E9.68021
G1 X54.306 Y26.701 E9.73101
G1 X54.334 Y26.926 E9.73618
G1 X52.744 Y28.516 E9.78736
G1 X52.760 Y28.753 E9.79277
G1 X54.362 Y27.151 E9.84435
G1 X54.390 Y27.377 E9.84952
G1 X52.776 Y28.990 E9.90147
G1 X52.792 Y29.227 E9.90688
G1 X54.406 Y27.613 E9.95884
G1 X54.422 Y27.850 E9.96425
G1 X52.808 Y29.464 E10.01621
G1 X52.824 Y29.701 E10.02162
G1 X54.438 Y28.087 E10.07360
G1 X54.454 Y28.324 E10.07900
G1 X52.839 Y29.938 E10.13098
G1 X52.855 Y30.175 E10.13639
G1 X54.470 Y28.561 E10.18838
G1 X54.486 Y28.798 E10.19379
G1 X52.871 Y30.412 E10.24578
G1 X52.887 Y30.649 E10.25119
G1 X54.502 Y29.034 E10.30320
G1 X54.518 Y29.271 E10.30860
G1 X52.901 Y30.889 E10.36068
G1 X52.902 Y31.141 E10.36642
G1 X54.534 Y29.508 E10.41900
G1 X54.550 Y29.745 E10.42440
G1 X52.902 Y31.393 E10.47746
G1 X52.903 Y31.645 E10.48320
G1 X54.566 Y29.982 E10.53676
G1 X54.582 Y30.219 E10.54217
G1 X52.904 Y31.897 E10.59621
G1 X52.905 Y32.149 E10.60195
G1 X54.598 Y30.455 E10.65649
G1 X54.608 Y30.699 E10.66204
G1 X52.905 Y32.401 E10.71686
G1 X52.906 Y32.653 E10.72260
G1 X54.609 Y30.951 E10.77741
G1 X54.610 Y31.203 E10.78315
G1 X52.907 Y32.905 E10.83797
G1 X52.908 Y33.158 E10.84371
G1 X54.611 Y31.455 E10.89854
G1 X54.611 Y31.707 E10.90428
G1 X52.909 Y33.410 E10.95911
G1 X52.896 Y33.676 E10.96517
G1 X54.612 Y31.959 E11.02045
G1 X54.613 Y32.211 E11.02619
G1 X52.876 Y33.948 E11.08213
G1 X52.857 Y34.220 E11.08834
G1 X54.614 Y32.463 E11.14493
G1 X54.615 Y32.715 E11.15067
G1 X52.837 Y34.493 E11.20791
G1 X52.818 Y34.765 E11.21412
G1 X54.616 Y32.967 E11.27202
G1 X54.617 Y33.219 E11.27776
G1 X52.799 Y35.037 E11.33630
G1 X52.779 Y35.309 E11.34252
G1 X54.613 Y33.475 E11.40157
G1 X54.594 Y33.747 E11.40778
G1 X52.760 Y35.582 E11.46684
G1 X52.740 Y35.854 E11.47306
G1 X54.575 Y34.019 E11.53213
G1 X54.556 Y34.292 E11.53834
G1 X52.721 Y36.126 E11.59742
G1 X52.702 Y36.398 E11.60363
G1 X54.537 Y34.564 E11.66272
G1 X54.518 Y34.836 E11.66893
G1 X52.671 Y36.682 E11.72838
G1 X52.640 Y36.966 E11.73489
G1 X54.498 Y35.108 E11.79473
G1 X54.479 Y35.380 E11.80093
G1 X52.609 Y37.250 E11.86116
G1 X52.578 Y37.534 E11.86766
G1 X54.460 Y35.652 E11.92826
G1 X54.441 Y35.924 E11.93447
G1 X52.547 Y37.818 E11.99546
G1 X52.516 Y38.102 E12.00196
G1 X54.422 Y36.196 E12.06333
G1 X54.410 Y36.372 E12.06736
G1 X54.399 Y36.472 E12.06964
G1 X52.485 Y38.385 E12.13126
G1 X52.454 Y38.669 E12.13776
G1 X54.368 Y36.756 E12.19938
G1 X54.337 Y37.040 E12.20589
G1 X52.423 Y38.953 E12.26750
G1 X52.392 Y39.237 E12.27401
G1 X54.306 Y37.324 E12.33562
G1 X54.275 Y37.608 E12.34213
G1 X52.361 Y39.521 E12.40374
G1 X52.330 Y39.805 E12.41025
G1 X54.244 Y37.891 E12.47186
G1 X54.213 Y38.175 E12.47837
G1 X52.299 Y40.089 E12.53998
G1 X52.268 Y40.373 E12.54649
G1 X54.182 Y38.459 E12.60810
G1 X54.151 Y38.743 E12.61461
G1 X52.237 Y40.657 E12.67622
G1 X52.206 Y40.941 E12.68273
G1 X54.120 Y39.027 E12.74434
G1 X54.088 Y39.311 E12.75085
G1 X52.175 Y41.225 E12.81246
G1 X52.144 Y41.508 E12.81896
G1 X54.057 Y39.595 E12.88058
G1 X54.026 Y39.879 E12.88708
G1 X52.113 Y41.792 E12.94870
